<?xml version="1.0" encoding="UTF-8"?>
<map version="1.10" tiledversion="1.12.2" orientation="orthogonal" renderorder="right-down" width="30" height="20" tilewidth="64" tileheight="64" infinite="1" nextlayerid="12" nextobjectid="2">
 <tileset firstgid="1" source="../../tilesets/terrain.tsj"/>
 <tileset firstgid="82" source="../../tilesets/wall.tsj"/>
 <tileset firstgid="97" source="../../tilesets/bigwall.tsj"/>
 <tileset firstgid="145" source="../../tilesets/wallcave.tsj"/>
 <tileset firstgid="657" source="../../tilesets/collision.tsj"/>
 <tileset firstgid="658" source="../../tilesets/player.tsj"/>
 <tileset firstgid="690" source="../../tilesets/cavewall.tsj"/>
 <tileset firstgid="1202" source="../../tilesets/shadow.tsj"/>
 <tileset firstgid="1266" source="../../tilesets/groundItem.tsj"/>
 <tileset firstgid="1522" source="../../tilesets/floor.tsj"/>
 <tileset firstgid="1883" source="../../tilesets/outsideItem.tsj"/>
 <layer id="1" name="ground" width="30" height="20">
  <data encoding="csv">
   <chunk x="-16" y="-16" width="16" height="16">
0,0,0,0,0,0,0,0,0,0,0,0,0,0,0,0,
0,0,0,0,0,0,0,0,0,0,0,0,0,0,0,0,
0,0,0,0,0,0,0,0,0,0,0,0,0,0,0,0,
0,0,0,0,0,0,0,0,0,0,0,0,0,0,0,0,
0,0,0,0,0,0,0,0,0,0,0,0,0,0,0,0,
0,0,0,0,0,1885,1885,1885,1885,1885,0,0,0,0,0,0,
0,0,0,0,0,1885,1523,1528,1544,1523,1522,1541,1541,1544,1528,1528,
0,0,0,0,0,1885,1522,1528,1528,1523,1525,1525,1522,1546,1546,1522,
0,0,0,0,0,1885,1542,1546,1523,1547,1525,1541,1541,1541,1547,1542,
0,0,0,0,0,1885,1527,1523,1528,1546,1541,1527,1547,1547,1527,1528,
0,0,0,0,0,1885,1527,1527,1541,1542,1682,1682,1682,1682,1680,1682,
0,0,0,0,0,1885,1720,1720,1720,1720,1680,1680,1682,1680,1680,1680,
0,0,0,0,0,0,1739,1739,1739,1720,1680,1682,1682,1682,1680,1682,
0,0,0,0,0,0,1739,1739,1739,1739,1680,1680,1680,1682,1682,1682,
0,0,0,0,0,0,1739,1739,1739,1739,1680,1680,1680,1682,1680,1680,
0,0,0,0,0,0,1522,1523,1546,1542,1682,1682,1680,1680,1680,1680
</chunk>
   <chunk x="0" y="-16" width="16" height="16">
0,0,0,0,0,0,0,0,0,0,0,0,0,0,0,0,
0,0,0,0,0,0,0,0,0,0,0,0,0,0,0,0,
0,0,0,0,0,0,0,0,0,0,0,0,0,0,0,0,
0,0,0,0,0,0,0,0,0,0,0,0,0,0,0,0,
0,0,0,0,0,0,0,0,0,0,0,0,0,0,0,0,
0,0,0,0,0,0,0,0,0,0,0,0,0,0,0,0,
1542,1523,1523,1544,1527,1542,1527,1547,1546,1541,1527,1528,1523,1546,1541,1544,
1542,1525,1523,1523,1523,1547,1546,1541,1525,1527,1522,1542,1541,1544,1546,1542,
1528,1542,1542,1542,1546,1544,1528,1522,1547,1525,1527,1544,1546,1541,1546,1523,
1542,1523,1523,1522,1542,1544,1522,1547,1527,1544,1546,1522,1547,1522,1522,1522,
1680,1682,1682,1682,1542,1525,1547,1547,1547,1547,1547,1547,1547,1547,1547,1527,
1682,1680,1680,1682,1546,1541,1547,1547,1547,1547,1547,1547,1547,1547,1547,1522,
1680,1682,1680,1682,1528,1547,1547,1547,1547,1547,1547,1547,1547,1547,1547,1541,
1680,1682,1680,1680,1525,1547,1547,1547,1547,1547,1547,1547,1547,1547,1547,1547,
1680,1682,1680,1680,1547,1527,1547,1547,1547,1547,1547,1547,1547,1547,1547,1525,
1680,1682,1680,1682,1542,1546,1547,1547,1547,1547,1547,1547,1547,1547,1547,1527
</chunk>
   <chunk x="16" y="-16" width="16" height="16">
0,0,0,0,0,0,0,0,0,0,0,0,0,0,0,0,
0,0,0,0,0,0,0,0,0,0,0,0,0,0,0,0,
0,0,0,0,0,0,0,0,0,0,0,0,0,0,0,0,
0,0,0,0,0,0,0,0,0,0,0,0,0,0,0,0,
0,0,0,0,0,0,0,0,0,0,0,0,0,0,0,0,
1885,1885,1885,1885,1885,0,0,0,0,0,0,0,0,0,0,0,
1546,1544,1523,1522,1885,0,0,0,0,0,0,0,0,0,0,0,
1527,1547,1523,1525,1885,0,0,0,0,0,0,0,0,0,0,0,
1528,1525,1525,1546,1885,0,0,0,0,0,0,0,0,0,0,0,
1542,1541,1525,1527,1885,0,0,0,0,0,0,0,0,0,0,0,
1544,1522,1542,1542,1885,0,0,0,0,0,0,0,0,0,0,0,
1541,1527,1523,1542,0,0,0,0,0,0,0,0,0,0,0,0,
1544,1541,1546,1527,0,0,0,0,0,0,0,0,0,0,0,0,
1542,1523,1546,1547,0,0,0,0,0,0,0,0,0,0,0,0,
1541,1547,1544,1546,0,0,0,0,0,0,0,0,0,0,0,0,
1523,1542,1544,1527,0,0,0,0,0,0,0,0,0,0,0,0
</chunk>
   <chunk x="-16" y="0" width="16" height="16">
0,0,0,0,0,0,1546,1527,1527,1544,1680,1682,1682,1680,1680,1682,
0,0,0,0,0,0,1585,1585,1585,1584,1584,1584,1584,1584,1585,1584,
0,0,0,0,0,0,1584,1584,1585,1584,1584,1584,1585,1585,1585,1584,
0,0,0,0,0,0,1547,1525,1523,1546,1527,1525,1528,1522,1585,1585,
0,0,0,0,0,0,1541,1547,1542,1527,1523,1547,1546,1523,1584,1585,
0,0,0,0,0,0,1527,1522,1547,1542,1547,1544,1541,1542,1584,1584,
0,0,0,0,0,0,1542,1527,1542,1528,1547,1527,1528,1541,1584,1585,
0,0,0,0,0,0,1547,1542,1528,1527,1544,1544,1522,1527,1585,1584,
0,0,0,0,0,0,1542,1525,1527,1544,1525,1522,1544,1541,1585,1584,
0,0,0,0,0,0,1527,1528,1541,1544,1544,1547,1523,1523,1584,1584,
0,0,0,0,0,0,1546,1525,1547,1523,1527,1541,1542,1544,1585,1584,
0,0,0,0,0,0,1528,1525,1546,1541,1523,1522,1527,1525,1585,1584,
0,0,0,0,0,0,1523,1525,1541,1522,1541,1528,1544,1528,1585,1584,
0,0,0,0,0,0,1547,1522,1547,1523,1528,1546,1522,1541,1585,1584,
0,0,0,0,0,0,1547,1542,1542,1528,1527,1528,1525,1542,1585,1584,
0,0,0,0,0,0,1542,1528,1523,1528,1522,1544,1528,1525,1585,1585
</chunk>
   <chunk x="0" y="0" width="16" height="16">
1680,1682,1682,1682,1542,1547,1547,1547,1547,1547,1547,1547,1547,1547,1547,1522,
1585,1585,1584,1585,1584,1585,1585,1584,1584,1585,1585,1584,1584,1585,1585,1585,
1584,1585,1585,1585,1585,1585,1584,1584,1584,1584,1584,1584,1584,1584,1585,1585,
1527,1546,1525,1541,1541,1523,1546,1525,1525,1525,1546,1525,1547,1522,1522,1547,
1547,1525,1542,1527,1542,1522,1525,1542,1542,1544,1544,1522,1544,1546,1542,1528,
1546,1544,1541,1527,1542,1547,1527,1522,1541,1547,1528,1544,1527,1541,1525,1546,
1547,1541,1522,1525,1528,1525,1541,1528,1527,1527,1546,1541,1544,1546,1528,1547,
1525,1525,1528,1522,1523,1542,1527,1525,1544,1525,1522,1525,1544,1544,1542,1523,
1523,1544,1523,1546,1547,1528,1523,1528,1546,1544,1546,1542,1523,1547,1523,1522,
1542,1542,1522,1541,1527,1780,1779,1779,1780,1779,1780,1779,1779,1780,1780,1780,
1525,1541,1542,1547,1546,1780,1780,1779,1779,1780,1780,1779,1779,1779,1779,1779,
1527,1544,1546,1541,1546,1780,1779,1780,1779,1780,1780,1779,1780,1780,1780,1780,
1546,1546,1525,1525,1527,1780,1780,1779,1779,1779,1779,1780,1780,1780,1779,1779,
1542,1523,1525,1522,1528,1779,1779,1780,1780,1779,1780,1780,1779,1779,1780,1779,
1525,1541,1542,1525,1541,1780,1780,1780,1779,1779,1780,1779,1780,1780,1780,1780,
1528,1546,1546,1541,1525,1780,1780,1780,1779,1780,1780,1779,1779,1780,1780,1779
</chunk>
   <chunk x="16" y="0" width="16" height="16">
1542,1547,1525,1522,0,0,0,0,0,0,0,0,0,0,0,0,
1584,1584,1585,1584,0,0,0,0,0,0,0,0,0,0,0,0,
1584,1585,1585,1584,0,0,0,0,0,0,0,0,0,0,0,0,
1525,1523,1544,1541,0,0,0,0,0,0,0,0,0,0,0,0,
1547,1547,1528,1544,0,0,0,0,0,0,0,0,0,0,0,0,
1542,1523,1542,1544,0,0,0,0,0,0,0,0,0,0,0,0,
1544,1528,1525,1527,0,0,0,0,0,0,0,0,0,0,0,0,
1542,1525,1525,1544,0,0,0,0,0,0,0,0,0,0,0,0,
1547,1527,1523,1542,0,0,0,0,0,0,0,0,0,0,0,0,
1779,1544,1546,1541,0,0,0,0,0,0,0,0,0,0,0,0,
1780,1527,1544,1541,0,0,0,0,0,0,0,0,0,0,0,0,
1780,1541,1528,1525,0,0,0,0,0,0,0,0,0,0,0,0,
1780,1544,1522,1547,0,0,0,0,0,0,0,0,0,0,0,0,
1779,1547,1546,1542,0,0,0,0,0,0,0,0,0,0,0,0,
1780,1525,1528,1547,0,0,0,0,0,0,0,0,0,0,0,0,
1780,1542,1541,1542,0,0,0,0,0,0,0,0,0,0,0,0
</chunk>
   <chunk x="-16" y="16" width="16" height="16">
0,0,0,0,0,1885,1525,1525,1544,1527,1523,1547,1546,1522,1584,1584,
0,0,0,0,0,1885,1523,1546,1527,1544,1541,1544,1522,1528,1584,1584,
0,0,0,0,0,1885,1542,1527,1546,1547,1523,1528,1523,1523,1585,1584,
0,0,0,0,0,1885,1544,1523,1523,1527,1527,1544,1522,1547,1584,1585,
0,0,0,0,0,1885,1885,1885,1885,0,0,0,0,0,0,0,
0,0,0,0,0,0,0,0,0,0,0,0,0,0,0,0,
0,0,0,0,0,0,0,0,0,0,0,0,0,0,0,0,
0,0,0,0,0,0,0,0,0,0,0,0,0,0,0,0,
0,0,0,0,0,0,0,0,0,0,0,0,0,0,0,0,
0,0,0,0,0,0,0,0,0,0,0,0,0,0,0,0,
0,0,0,0,0,0,0,0,0,0,0,0,0,0,0,0,
0,0,0,0,0,0,0,0,0,0,0,0,0,0,0,0,
0,0,0,0,0,0,0,0,0,0,0,0,0,0,0,0,
0,0,0,0,0,0,0,0,0,0,0,0,0,0,0,0,
0,0,0,0,0,0,0,0,0,0,0,0,0,0,0,0,
0,0,0,0,0,0,0,0,0,0,0,0,0,0,0,0
</chunk>
   <chunk x="0" y="16" width="16" height="16">
1546,1544,1522,1546,1523,1779,1779,1779,1780,1780,1779,1780,1780,1779,1779,1780,
1547,1542,1527,1523,1523,1528,1525,1547,1523,1547,1541,1528,1522,1525,1522,1527,
1523,1527,1541,1544,1546,1528,1544,1528,1528,1523,1547,1527,1525,1523,1547,1547,
1525,1523,1522,1523,1522,1523,1523,1527,1544,1542,1544,1527,1522,1525,1522,1544,
0,0,0,0,0,0,0,0,0,0,0,0,0,0,0,0,
0,0,0,0,0,0,0,0,0,0,0,0,0,0,0,0,
0,0,0,0,0,0,0,0,0,0,0,0,0,0,0,0,
0,0,0,0,0,0,0,0,0,0,0,0,0,0,0,0,
0,0,0,0,0,0,0,0,0,0,0,0,0,0,0,0,
0,0,0,0,0,0,0,0,0,0,0,0,0,0,0,0,
0,0,0,0,0,0,0,0,0,0,0,0,0,0,0,0,
0,0,0,0,0,0,0,0,0,0,0,0,0,0,0,0,
0,0,0,0,0,0,0,0,0,0,0,0,0,0,0,0,
0,0,0,0,0,0,0,0,0,0,0,0,0,0,0,0,
0,0,0,0,0,0,0,0,0,0,0,0,0,0,0,0,
0,0,0,0,0,0,0,0,0,0,0,0,0,0,0,0
</chunk>
   <chunk x="16" y="16" width="16" height="16">
1779,1547,1547,1541,1885,0,0,0,0,0,0,0,0,0,0,0,
1547,1527,1522,1544,1885,0,0,0,0,0,0,0,0,0,0,0,
1541,1522,1541,1546,1885,0,0,0,0,0,0,0,0,0,0,0,
1547,1546,1523,1544,1885,0,0,0,0,0,0,0,0,0,0,0,
1885,1885,1885,1885,1885,0,0,0,0,0,0,0,0,0,0,0,
0,0,0,0,0,0,0,0,0,0,0,0,0,0,0,0,
0,0,0,0,0,0,0,0,0,0,0,0,0,0,0,0,
0,0,0,0,0,0,0,0,0,0,0,0,0,0,0,0,
0,0,0,0,0,0,0,0,0,0,0,0,0,0,0,0,
0,0,0,0,0,0,0,0,0,0,0,0,0,0,0,0,
0,0,0,0,0,0,0,0,0,0,0,0,0,0,0,0,
0,0,0,0,0,0,0,0,0,0,0,0,0,0,0,0,
0,0,0,0,0,0,0,0,0,0,0,0,0,0,0,0,
0,0,0,0,0,0,0,0,0,0,0,0,0,0,0,0,
0,0,0,0,0,0,0,0,0,0,0,0,0,0,0,0,
0,0,0,0,0,0,0,0,0,0,0,0,0,0,0,0
</chunk>
  </data>
 </layer>
 <layer id="2" name="groundDetails" width="30" height="20">
  <data encoding="csv">
   <chunk x="-16" y="-16" width="16" height="16">
0,0,0,0,0,0,0,0,0,0,0,0,0,0,0,0,
0,0,0,0,0,0,0,0,0,0,0,0,0,0,0,0,
0,0,0,0,0,0,0,0,0,0,0,0,0,0,0,0,
0,0,0,0,0,0,0,0,0,0,0,0,0,0,0,0,
0,0,0,0,0,0,0,0,0,0,0,0,0,0,0,0,
0,0,0,0,0,0,0,0,0,0,0,0,0,0,0,0,
0,0,0,0,0,0,0,0,0,0,0,0,0,0,0,0,
0,0,0,0,0,0,0,0,0,0,0,0,0,0,0,0,
0,0,0,0,0,0,0,0,0,0,0,0,0,0,0,0,
0,0,0,0,0,0,0,0,0,0,0,0,0,0,0,0,
0,0,0,0,0,0,0,0,0,0,0,0,0,0,0,0,
0,0,0,0,0,0,0,0,0,0,0,0,1274,1275,1276,1277,
0,0,0,0,0,0,0,0,0,0,2075,2076,1290,1291,1292,1293,
0,0,0,0,0,0,1314,1315,1316,0,0,0,1306,1307,1308,1309,
0,0,0,0,0,0,1330,1331,1332,0,0,2076,0,2076,2075,2076,
0,0,0,0,0,0,0,0,0,0,0,0,2075,0,0,2076
</chunk>
   <chunk x="0" y="-16" width="16" height="16">
0,0,0,0,0,0,0,0,0,0,0,0,0,0,0,0,
0,0,0,0,0,0,0,0,0,0,0,0,0,0,0,0,
0,0,0,0,0,0,0,0,0,0,0,0,0,0,0,0,
0,0,0,0,0,0,0,0,0,0,0,0,0,0,0,0,
0,0,0,0,0,0,0,0,0,0,0,0,0,0,0,0,
0,0,0,0,0,0,0,0,0,0,0,0,0,0,0,0,
0,0,0,0,0,0,0,0,0,0,0,0,0,0,0,0,
0,0,0,0,0,0,0,0,0,0,0,0,0,0,0,0,
0,0,0,0,0,0,0,0,0,0,0,0,0,0,0,0,
0,0,0,0,0,0,0,0,0,0,0,0,0,0,0,0,
0,0,0,0,0,0,0,0,0,0,0,0,0,0,0,0,
1278,0,0,0,0,0,0,1952,0,0,0,0,1953,1952,0,0,
1294,2164,0,0,0,0,0,0,1951,1953,1953,1951,1953,0,0,0,
1310,0,2075,0,0,0,0,0,0,0,1952,0,0,1951,0,0,
2076,2076,2075,0,0,0,0,0,0,0,1953,0,0,0,0,0,
0,0,2076,0,0,0,0,0,0,0,0,0,0,0,0,0
</chunk>
   <chunk x="-16" y="0" width="16" height="16">
0,0,0,0,0,0,0,0,0,0,0,0,0,0,0,0,
0,0,0,0,0,0,0,0,0,0,0,0,0,0,2075,2075,
0,0,0,0,0,0,0,0,0,0,0,0,0,0,0,0,
0,0,0,0,0,0,0,0,0,0,0,0,0,0,0,0,
0,0,0,0,0,0,0,0,0,0,0,0,0,0,0,0,
0,0,0,0,0,0,0,0,0,0,0,0,0,0,0,0,
0,0,0,0,0,0,0,0,0,0,0,0,2239,0,0,0,
0,0,0,0,0,0,0,0,0,0,0,0,0,0,0,0,
0,0,0,0,0,0,0,0,0,0,0,0,0,0,0,0,
0,0,0,0,0,0,0,2239,0,0,2238,0,0,0,0,0,
0,0,0,0,0,0,0,0,0,0,0,0,0,0,0,0,
0,0,0,0,0,0,0,0,0,0,0,0,0,0,0,0,
0,0,0,0,0,0,0,0,0,2333,2334,2239,0,0,0,0,
0,0,0,0,0,0,0,0,0,2365,2366,0,0,0,0,0,
0,0,0,0,0,0,0,0,0,0,0,0,0,0,0,0,
0,0,0,0,0,0,0,0,0,0,0,0,0,0,0,0
</chunk>
   <chunk x="0" y="0" width="16" height="16">
0,0,0,0,0,2208,0,0,0,2210,0,0,0,0,0,0,
2076,0,0,0,0,0,0,0,0,0,0,0,0,0,0,0,
0,0,0,0,0,0,0,0,0,0,0,0,0,0,0,0,
0,0,0,0,0,0,0,0,0,0,0,0,0,0,0,0,
0,0,0,0,0,0,0,0,0,0,0,0,0,0,0,0,
0,0,0,0,0,0,0,0,0,0,0,0,0,0,0,0,
0,0,0,0,0,0,0,0,0,0,0,0,0,0,0,0,
0,0,0,0,0,0,0,0,0,0,0,0,0,0,0,0,
0,0,0,0,2239,0,0,0,0,0,0,0,0,0,0,0,
0,0,2238,0,0,0,0,0,0,0,0,0,0,0,0,0,
0,0,0,0,0,0,0,0,0,0,0,0,0,0,0,0,
0,0,0,0,0,0,0,0,0,0,0,0,0,0,0,0,
0,0,0,0,0,2174,2173,2174,2173,2174,2173,2173,2173,2173,2173,2173,
0,0,0,0,0,2174,2173,2173,2173,2173,2173,2174,2173,2173,2173,2174,
0,0,0,0,0,1919,0,0,0,0,0,0,0,0,0,0,
0,0,0,0,0,1919,1919,1919,1919,1919,1919,1919,1919,1919,1919,1919
</chunk>
   <chunk x="16" y="0" width="16" height="16">
0,0,0,0,0,0,0,0,0,0,0,0,0,0,0,0,
0,0,0,0,0,0,0,0,0,0,0,0,0,0,0,0,
0,0,0,0,0,0,0,0,0,0,0,0,0,0,0,0,
0,0,0,0,0,0,0,0,0,0,0,0,0,0,0,0,
0,0,0,0,0,0,0,0,0,0,0,0,0,0,0,0,
0,0,0,0,0,0,0,0,0,0,0,0,0,0,0,0,
0,0,0,0,0,0,0,0,0,0,0,0,0,0,0,0,
0,0,0,0,0,0,0,0,0,0,0,0,0,0,0,0,
0,0,0,0,0,0,0,0,0,0,0,0,0,0,0,0,
0,0,0,0,0,0,0,0,0,0,0,0,0,0,0,0,
0,0,0,0,0,0,0,0,0,0,0,0,0,0,0,0,
0,0,0,0,0,0,0,0,0,0,0,0,0,0,0,0,
2174,0,0,0,0,0,0,0,0,0,0,0,0,0,0,0,
2173,0,0,0,0,0,0,0,0,0,0,0,0,0,0,0,
0,0,0,0,0,0,0,0,0,0,0,0,0,0,0,0,
1919,0,0,0,0,0,0,0,0,0,0,0,0,0,0,0
</chunk>
   <chunk x="-16" y="16" width="16" height="16">
0,0,0,0,0,0,0,2238,0,0,0,0,0,0,0,0,
0,0,0,0,0,0,0,2237,2238,0,0,2239,0,0,0,0,
0,0,0,0,0,0,0,0,0,0,0,2239,0,0,0,0,
0,0,0,0,0,0,0,0,0,0,0,0,0,0,0,0,
0,0,0,0,0,0,0,0,0,0,0,0,0,0,0,0,
0,0,0,0,0,0,0,0,0,0,0,0,0,0,0,0,
0,0,0,0,0,0,0,0,0,0,0,0,0,0,0,0,
0,0,0,0,0,0,0,0,0,0,0,0,0,0,0,0,
0,0,0,0,0,0,0,0,0,0,0,0,0,0,0,0,
0,0,0,0,0,0,0,0,0,0,0,0,0,0,0,0,
0,0,0,0,0,0,0,0,0,0,0,0,0,0,0,0,
0,0,0,0,0,0,0,0,0,0,0,0,0,0,0,0,
0,0,0,0,0,0,0,0,0,0,0,0,0,0,0,0,
0,0,0,0,0,0,0,0,0,0,0,0,0,0,0,0,
0,0,0,0,0,0,0,0,0,0,0,0,0,0,0,0,
0,0,0,0,0,0,0,0,0,0,0,0,0,0,0,0
</chunk>
   <chunk x="0" y="16" width="16" height="16">
0,0,0,0,0,1919,1919,1919,1919,1919,1919,1919,1919,1919,1919,1919,
0,0,0,2238,0,0,0,0,0,0,0,0,0,0,0,0,
0,0,0,0,0,0,0,0,0,0,0,0,0,0,0,0,
0,0,0,0,0,0,0,0,0,0,0,0,0,0,0,0,
0,0,0,0,0,0,0,0,0,0,0,0,0,0,0,0,
0,0,0,0,0,0,0,0,0,0,0,0,0,0,0,0,
0,0,0,0,0,0,0,0,0,0,0,0,0,0,0,0,
0,0,0,0,0,0,0,0,0,0,0,0,0,0,0,0,
0,0,0,0,0,0,0,0,0,0,0,0,0,0,0,0,
0,0,0,0,0,0,0,0,0,0,0,0,0,0,0,0,
0,0,0,0,0,0,0,0,0,0,0,0,0,0,0,0,
0,0,0,0,0,0,0,0,0,0,0,0,0,0,0,0,
0,0,0,0,0,0,0,0,0,0,0,0,0,0,0,0,
0,0,0,0,0,0,0,0,0,0,0,0,0,0,0,0,
0,0,0,0,0,0,0,0,0,0,0,0,0,0,0,0,
0,0,0,0,0,0,0,0,0,0,0,0,0,0,0,0
</chunk>
   <chunk x="16" y="16" width="16" height="16">
1919,0,0,0,0,0,0,0,0,0,0,0,0,0,0,0,
0,0,0,0,0,0,0,0,0,0,0,0,0,0,0,0,
0,0,0,0,0,0,0,0,0,0,0,0,0,0,0,0,
0,0,0,0,0,0,0,0,0,0,0,0,0,0,0,0,
0,0,0,0,0,0,0,0,0,0,0,0,0,0,0,0,
0,0,0,0,0,0,0,0,0,0,0,0,0,0,0,0,
0,0,0,0,0,0,0,0,0,0,0,0,0,0,0,0,
0,0,0,0,0,0,0,0,0,0,0,0,0,0,0,0,
0,0,0,0,0,0,0,0,0,0,0,0,0,0,0,0,
0,0,0,0,0,0,0,0,0,0,0,0,0,0,0,0,
0,0,0,0,0,0,0,0,0,0,0,0,0,0,0,0,
0,0,0,0,0,0,0,0,0,0,0,0,0,0,0,0,
0,0,0,0,0,0,0,0,0,0,0,0,0,0,0,0,
0,0,0,0,0,0,0,0,0,0,0,0,0,0,0,0,
0,0,0,0,0,0,0,0,0,0,0,0,0,0,0,0,
0,0,0,0,0,0,0,0,0,0,0,0,0,0,0,0
</chunk>
  </data>
 </layer>
 <layer id="8" name="wall" width="30" height="20">
  <data encoding="csv"/>
 </layer>
 <layer id="11" name="object" width="30" height="20">
  <data encoding="csv">
   <chunk x="-16" y="-16" width="16" height="16">
0,0,0,0,0,0,0,0,0,0,0,0,0,0,0,0,
0,0,0,0,0,0,0,0,0,0,0,0,0,0,0,0,
0,0,0,0,0,0,0,0,0,0,0,0,0,0,0,0,
0,0,0,0,0,0,0,0,0,0,0,0,0,0,0,0,
0,0,0,0,0,0,0,0,0,0,0,0,0,0,0,0,
0,0,0,0,0,0,0,0,0,0,0,0,0,0,0,0,
0,0,0,0,0,0,0,0,0,0,0,0,0,0,0,0,
0,0,0,0,0,0,0,0,0,0,0,0,0,0,0,0,
0,0,0,0,0,0,0,0,0,0,0,0,0,0,0,0,
0,0,0,0,0,0,0,0,0,0,0,0,0,0,0,0,
0,0,0,0,0,0,2175,2175,2175,2175,2214,2212,2214,2212,2214,2212,
0,0,0,0,0,0,1378,1379,1380,0,0,0,0,0,0,0,
0,0,0,0,0,0,1394,1395,1396,0,0,0,0,0,0,0,
0,0,0,0,0,0,0,0,0,0,0,0,0,0,0,0,
0,0,0,0,0,0,0,0,0,0,0,0,0,0,0,0,
0,0,0,0,0,0,0,0,0,0,0,0,0,0,0,0
</chunk>
   <chunk x="0" y="-16" width="16" height="16">
0,0,0,0,0,0,0,0,0,0,0,0,0,0,0,0,
0,0,0,0,0,0,0,0,0,0,0,0,0,0,0,0,
0,0,0,0,0,0,0,0,0,0,0,0,0,0,0,0,
0,0,0,0,0,0,0,0,0,0,0,0,0,0,0,0,
0,0,0,0,0,0,0,0,0,0,0,0,0,0,0,0,
0,0,0,0,0,0,0,0,0,0,0,0,0,0,0,0,
0,0,0,0,0,0,0,0,0,0,0,0,0,0,0,0,
0,0,0,0,0,0,0,0,0,0,0,0,0,0,0,0,
0,0,0,0,0,0,0,0,0,0,0,0,0,0,0,0,
0,0,0,0,0,0,0,0,0,0,0,0,0,0,0,0,
2214,2212,2214,2212,2175,2209,2209,2212,2213,2211,2214,2211,2214,2211,2214,2212,
0,0,0,0,0,2345,2346,0,0,0,0,0,0,0,0,0,
0,0,0,0,2175,2377,2378,0,0,0,0,0,0,0,0,0,
0,0,0,0,0,0,0,0,0,0,0,0,0,0,0,0,
0,0,0,0,2175,0,2347,2348,2349,0,0,0,2347,2348,2349,0,
0,0,0,0,0,0,2379,2380,2381,0,0,0,2379,2380,2381,0
</chunk>
   <chunk x="16" y="-16" width="16" height="16">
0,0,0,0,0,0,0,0,0,0,0,0,0,0,0,0,
0,0,0,0,0,0,0,0,0,0,0,0,0,0,0,0,
0,0,0,0,0,0,0,0,0,0,0,0,0,0,0,0,
0,0,0,0,0,0,0,0,0,0,0,0,0,0,0,0,
0,0,0,0,0,0,0,0,0,0,0,0,0,0,0,0,
0,0,0,0,0,0,0,0,0,0,0,0,0,0,0,0,
0,0,0,0,0,0,0,0,0,0,0,0,0,0,0,0,
0,0,0,0,0,0,0,0,0,0,0,0,0,0,0,0,
0,0,0,0,0,0,0,0,0,0,0,0,0,0,0,0,
0,0,0,0,0,0,0,0,0,0,0,0,0,0,0,0,
2209,0,0,0,0,0,0,0,0,0,0,0,0,0,0,0,
0,0,0,0,0,0,0,0,0,0,0,0,0,0,0,0,
2209,0,0,0,0,0,0,0,0,0,0,0,0,0,0,0,
0,0,0,0,0,0,0,0,0,0,0,0,0,0,0,0,
2209,0,0,0,0,0,0,0,0,0,0,0,0,0,0,0,
0,0,0,0,0,0,0,0,0,0,0,0,0,0,0,0
</chunk>
   <chunk x="-16" y="0" width="16" height="16">
0,0,0,0,0,0,2175,2175,2175,2175,2175,2209,2209,2209,2258,2259,
0,0,0,0,0,0,0,0,0,0,0,0,2086,0,0,0,
0,0,0,0,0,0,0,0,0,0,0,0,0,0,0,0,
0,0,0,0,0,0,0,2370,0,0,2369,0,0,0,0,0,
0,0,0,0,0,0,0,0,0,0,0,0,0,0,0,0,
0,0,0,0,0,0,0,2369,0,0,0,0,0,0,0,0,
0,0,0,0,0,0,0,0,0,0,2370,0,0,0,0,0,
0,0,0,0,0,0,0,0,0,0,0,0,0,0,0,0,
0,0,0,0,0,0,0,0,0,0,0,0,0,0,0,0,
0,0,0,0,0,0,0,0,0,0,0,0,0,0,0,0,
0,0,0,0,0,0,0,0,0,0,0,0,0,0,0,0,
0,0,0,0,0,0,0,0,0,0,0,0,0,0,0,0,
0,0,0,0,0,0,0,0,0,0,0,0,0,0,0,0,
0,0,0,0,0,0,0,0,0,0,0,0,0,0,0,0,
0,0,0,0,0,0,0,0,0,0,0,0,0,0,0,0,
0,0,0,0,0,0,0,0,0,0,0,0,0,0,0,0
</chunk>
   <chunk x="0" y="0" width="16" height="16">
2260,2209,2209,2175,2175,2209,2209,2209,2209,2252,2253,2254,2209,2209,2209,2209,
0,0,0,0,0,0,0,0,0,0,0,0,2280,2281,2282,0,
0,0,0,0,0,0,0,0,0,0,0,0,2312,2313,2314,0,
0,2370,0,0,0,0,0,0,0,0,0,0,0,0,0,0,
0,0,0,0,2367,0,0,0,0,0,0,0,0,0,0,0,
0,0,0,0,0,0,2367,0,0,0,0,0,0,0,0,0,
0,0,0,0,0,0,0,0,0,0,0,0,0,0,0,0,
0,2370,0,0,0,0,2370,0,0,0,0,0,0,0,0,0,
0,0,0,0,0,0,0,0,0,0,0,0,0,0,0,0,
0,0,0,0,0,0,0,0,0,0,0,0,0,0,0,0,
0,0,0,0,0,2343,2343,2343,2343,2343,2343,2343,2343,2343,2343,2343,
0,0,0,0,0,2375,2375,2375,2375,2375,2375,2375,2375,2375,2375,2375,
0,0,0,0,0,0,0,0,0,0,0,0,0,0,0,0,
0,0,0,0,0,2342,2342,2342,2342,2342,2342,2342,2342,2342,2342,2342,
0,0,0,0,0,2374,2374,2374,2374,2374,2374,2374,2374,2374,2374,2374,
0,0,0,0,0,0,0,0,0,0,0,0,0,0,0,0
</chunk>
   <chunk x="16" y="0" width="16" height="16">
2209,2210,0,0,0,0,0,0,0,0,0,0,0,0,0,0,
0,0,0,0,0,0,0,0,0,0,0,0,0,0,0,0,
0,0,0,0,0,0,0,0,0,0,0,0,0,0,0,0,
0,0,0,0,0,0,0,0,0,0,0,0,0,0,0,0,
0,0,0,0,0,0,0,0,0,0,0,0,0,0,0,0,
0,0,0,0,0,0,0,0,0,0,0,0,0,0,0,0,
0,0,0,0,0,0,0,0,0,0,0,0,0,0,0,0,
0,0,0,0,0,0,0,0,0,0,0,0,0,0,0,0,
0,0,0,0,0,0,0,0,0,0,0,0,0,0,0,0,
0,0,0,0,0,0,0,0,0,0,0,0,0,0,0,0,
2343,0,0,0,0,0,0,0,0,0,0,0,0,0,0,0,
2375,0,0,0,0,0,0,0,0,0,0,0,0,0,0,0,
0,0,0,0,0,0,0,0,0,0,0,0,0,0,0,0,
2342,0,0,0,0,0,0,0,0,0,0,0,0,0,0,0,
2374,0,0,0,0,0,0,0,0,0,0,0,0,0,0,0,
0,0,0,0,0,0,0,0,0,0,0,0,0,0,0,0
</chunk>
  </data>
 </layer>
 <layer id="4" name="top" width="30" height="20">
  <data encoding="csv">
   <chunk x="-16" y="-16" width="16" height="16">
0,0,0,0,0,0,0,0,0,0,0,0,0,0,0,0,
0,0,0,0,0,0,0,0,0,0,0,0,0,0,0,0,
0,0,0,0,0,0,0,0,0,0,0,0,0,0,0,0,
0,0,0,0,0,0,0,0,0,0,0,0,0,0,0,0,
0,0,0,0,0,0,0,0,0,0,0,0,0,0,0,0,
0,0,0,0,0,0,0,0,0,0,0,0,0,0,0,0,
0,0,0,0,0,0,0,0,0,0,0,0,0,0,0,0,
0,0,0,0,0,0,0,0,0,0,0,0,0,0,0,0,
0,0,0,0,0,0,0,0,0,0,0,0,0,0,0,0,
0,0,0,0,0,0,0,0,0,0,0,0,0,0,0,0,
0,0,0,0,0,0,0,0,0,0,0,0,0,0,0,0,
0,0,0,0,0,0,0,0,0,0,0,0,0,0,0,0,
0,0,0,0,0,0,0,0,0,0,0,0,0,0,0,0,
0,0,0,0,0,0,0,0,0,0,0,0,0,0,0,0,
0,0,0,0,0,0,0,0,0,0,0,0,0,0,2194,2195,
0,0,0,0,0,0,0,0,0,0,0,0,0,0,2226,2227
</chunk>
   <chunk x="0" y="-16" width="16" height="16">
0,0,0,0,0,0,0,0,0,0,0,0,0,0,0,0,
0,0,0,0,0,0,0,0,0,0,0,0,0,0,0,0,
0,0,0,0,0,0,0,0,0,0,0,0,0,0,0,0,
0,0,0,0,0,0,0,0,0,0,0,0,0,0,0,0,
0,0,0,0,0,0,0,0,0,0,0,0,0,0,0,0,
0,0,0,0,0,0,0,0,0,0,0,0,0,0,0,0,
0,0,0,0,0,0,0,0,0,0,0,0,0,0,0,0,
0,0,0,0,0,0,0,0,0,0,0,0,0,0,0,0,
0,0,0,0,0,0,0,0,0,0,0,0,0,0,0,0,
0,0,0,0,0,0,0,0,0,0,0,0,0,0,0,0,
0,0,0,0,2208,0,0,2210,0,0,0,0,0,0,0,2208,
0,0,0,0,0,0,0,0,0,0,0,0,0,0,0,0,
0,0,0,0,0,0,0,0,0,0,0,0,0,0,0,2208,
0,0,0,0,0,0,0,0,0,0,0,0,0,0,0,0,
2196,0,0,0,0,0,0,0,0,2188,2189,2190,0,0,0,2208,
2228,0,0,0,0,0,0,0,0,2220,2221,2222,0,0,0,0
</chunk>
   <chunk x="16" y="-16" width="16" height="16">
0,0,0,0,0,0,0,0,0,0,0,0,0,0,0,0,
0,0,0,0,0,0,0,0,0,0,0,0,0,0,0,0,
0,0,0,0,0,0,0,0,0,0,0,0,0,0,0,0,
0,0,0,0,0,0,0,0,0,0,0,0,0,0,0,0,
0,0,0,0,0,0,0,0,0,0,0,0,0,0,0,0,
0,0,0,0,0,0,0,0,0,0,0,0,0,0,0,0,
0,0,0,0,0,0,0,0,0,0,0,0,0,0,0,0,
0,0,0,0,0,0,0,0,0,0,0,0,0,0,0,0,
0,0,0,0,0,0,0,0,0,0,0,0,0,0,0,0,
0,0,0,0,0,0,0,0,0,0,0,0,0,0,0,0,
0,2210,0,0,0,0,0,0,0,0,0,0,0,0,0,0,
0,0,0,0,0,0,0,0,0,0,0,0,0,0,0,0,
2181,2210,0,0,0,0,0,0,0,0,0,0,0,0,0,0,
0,0,0,0,0,0,0,0,0,0,0,0,0,0,0,0,
2181,2210,0,0,0,0,0,0,0,0,0,0,0,0,0,0,
0,0,0,0,0,0,0,0,0,0,0,0,0,0,0,0
</chunk>
   <chunk x="-16" y="0" width="16" height="16">
0,0,0,0,0,0,0,0,0,0,0,0,0,0,2143,0,
0,0,0,0,0,0,0,0,0,0,0,0,0,0,0,0,
0,0,0,0,0,0,0,2338,0,0,2337,0,0,0,0,0,
0,0,0,0,0,0,0,0,0,0,0,0,0,0,0,0,
0,0,0,0,0,0,0,2337,0,0,0,0,0,0,0,0,
0,0,0,0,0,0,0,0,0,0,2338,0,0,0,0,0,
0,0,0,0,0,0,0,0,0,0,0,0,0,0,0,0,
0,0,0,0,0,0,0,0,0,0,0,0,0,0,0,0,
0,0,0,0,0,0,0,0,0,0,0,0,0,0,0,0,
0,0,0,0,0,0,0,0,0,0,0,0,0,0,0,0,
0,0,0,0,0,0,0,0,0,0,0,0,0,0,0,0,
0,0,0,0,0,0,0,0,0,0,0,0,0,0,0,0,
0,0,0,0,0,0,0,0,0,0,0,0,0,0,0,0,
0,0,0,0,0,0,0,0,0,0,0,0,0,0,0,0,
0,0,0,0,0,0,0,0,0,0,0,0,0,0,0,0,
0,0,0,0,0,0,0,0,0,0,0,0,0,0,0,0
</chunk>
   <chunk x="0" y="0" width="16" height="16">
2143,0,0,0,2208,0,0,0,0,0,0,0,0,0,0,0,
0,0,0,0,0,0,0,0,0,0,0,0,0,0,0,0,
0,2338,0,0,0,0,0,0,0,0,0,0,0,0,0,0,
0,0,0,0,2335,0,0,0,0,0,0,0,0,0,0,0,
0,0,0,0,0,0,2335,0,0,0,0,0,0,0,0,0,
0,0,0,0,0,0,0,0,0,0,0,0,0,0,0,0,
0,2338,0,0,0,0,2338,0,0,0,0,0,0,0,0,0,
0,0,0,0,0,0,0,0,0,0,0,0,0,0,0,0,
0,0,0,0,0,0,0,0,0,0,0,0,0,0,0,0,
0,0,0,0,0,0,0,0,0,0,0,0,0,0,0,0,
0,0,0,0,0,0,0,0,0,0,0,0,0,0,0,0,
0,0,0,0,0,0,0,0,0,0,0,0,0,0,0,0,
0,0,0,0,0,0,0,0,0,0,0,0,0,0,0,0,
0,0,0,0,0,0,0,0,0,0,0,0,0,0,0,0,
0,0,0,0,0,0,0,0,0,0,0,0,0,0,0,0,
0,0,0,0,0,0,0,0,0,0,0,0,0,0,0,0
</chunk>
  </data>
 </layer>
 <layer id="5" name="collision" width="30" height="20">
  <data encoding="csv"/>
 </layer>
 <objectgroup id="9" name="transitions"/>
 <objectgroup id="10" name="spawns"/>
</map>
