<?xml version="1.0" encoding="UTF-8"?>
<map version="1.10" tiledversion="1.12.2" orientation="orthogonal" renderorder="right-down" width="30" height="20" tilewidth="64" tileheight="64" infinite="1" nextlayerid="12" nextobjectid="10">
 <tileset firstgid="1" source="../../tilesets/terrain.tsj"/>
 <tileset firstgid="82" source="../../tilesets/wall.tsj"/>
 <tileset firstgid="97" source="../../tilesets/bigwall.tsj"/>
 <tileset firstgid="145" source="../../tilesets/wallcave.tsj"/>
 <tileset firstgid="657" source="../../tilesets/collision.tsj"/>
 <tileset firstgid="658" source="../../tilesets/player.tsj"/>
 <tileset firstgid="658" source="../../tilesets/cavewall.tsj"/>
 <tileset firstgid="1170" source="../../tilesets/shadow.tsj"/>
 <tileset firstgid="1234" source="../../tilesets/groundItem.tsj"/>
 <tileset firstgid="1490" source="../../tilesets/outsideItem.tsj"/>
 <layer id="1" name="ground" width="48" height="48">
  <data encoding="csv">
   <chunk x="-16" y="-16" width="16" height="16">
0,0,0,0,0,0,0,0,0,0,0,0,0,0,0,0,
0,0,0,0,0,0,0,0,0,0,0,0,0,0,0,0,
0,0,0,0,0,0,0,0,0,0,0,0,0,0,0,0,
0,0,0,0,0,0,0,0,0,0,0,0,0,0,0,0,
0,0,0,0,0,0,0,0,0,0,0,0,0,0,0,0,
0,0,0,0,0,0,0,0,0,0,0,0,0,0,0,0,
0,0,0,0,0,0,2,1,2,1,2,1,2,2,1,1,
0,0,0,0,0,0,1,1,2,2,2,2,1,1,1,1,
0,0,0,0,0,0,1,2,1,1,2,2,2,2,1,2,
0,0,0,0,0,0,2,1,1,2,2,2,1,2,2,1,
0,0,0,0,0,0,1,2,2,1,2,1,1,2,2,1,
0,0,0,0,0,0,2,1,1,1,2,1,2,1,2,1,
0,0,0,0,0,0,1,1,2,2,1,2,1,1,1,1,
0,0,0,0,0,0,4,3,4,3,4,3,2,1,4,3,
0,0,0,0,0,0,3,10,4,10,3,10,3,10,10,4,
0,0,0,0,0,0,1,1,1,2,1,4,10,4,3,2
</chunk>
   <chunk x="0" y="-16" width="16" height="16">
0,0,0,0,0,0,0,0,0,0,0,0,0,0,0,0,
0,0,0,0,0,0,0,0,0,0,0,0,0,0,0,0,
0,0,0,0,0,0,0,0,0,0,0,0,0,0,0,0,
0,0,0,0,0,0,0,0,0,0,0,0,0,0,0,0,
0,0,0,0,0,0,0,0,0,0,0,0,0,0,0,0,
0,0,0,0,0,0,0,0,0,0,0,0,0,0,0,0,
1,2,1,1,1,1,1,2,2,1,3,3,4,2,2,1,
2,2,2,1,1,1,1,1,2,3,3,3,10,2,2,1,
2,2,1,2,1,1,1,4,3,3,4,4,2,1,4,2,
1,2,2,2,2,1,10,4,3,10,4,2,2,2,2,3,
2,2,2,1,2,1,2,10,4,1,1,1,1,1,1,2,
2,3,3,4,4,10,3,10,10,10,10,4,10,2,2,4,
4,4,10,4,3,10,4,3,10,3,3,2,4,10,4,10,
10,3,10,2,2,2,1,1,10,10,4,2,2,2,2,1,
3,2,1,1,2,2,1,10,4,4,3,1,2,1,1,2,
2,2,1,2,2,1,3,4,10,3,4,4,3,2,2,2
</chunk>
   <chunk x="16" y="-16" width="16" height="16">
0,0,0,0,0,0,0,0,0,0,0,0,0,0,0,0,
0,0,0,0,0,0,0,0,0,0,0,0,0,0,0,0,
0,0,0,0,0,0,0,0,0,0,0,0,0,0,0,0,
0,0,0,0,0,0,0,0,0,0,0,0,0,0,0,0,
0,0,0,0,0,0,0,0,0,0,0,0,0,0,0,0,
0,0,0,0,0,0,0,0,0,0,0,0,0,0,0,0,
2,1,2,2,0,0,0,0,0,0,0,0,0,0,0,0,
2,1,1,2,0,0,0,0,0,0,0,0,0,0,0,0,
2,1,2,2,0,0,0,0,0,0,0,0,0,0,0,0,
1,2,1,2,0,0,0,0,0,0,0,0,0,0,0,0,
1,2,1,1,0,0,0,0,0,0,0,0,0,0,0,0,
3,10,2,4,0,0,0,0,0,0,0,0,0,0,0,0,
4,2,10,10,0,0,0,0,0,0,0,0,0,0,0,0,
1,1,1,1,0,0,0,0,0,0,0,0,0,0,0,0,
2,1,1,1,0,0,0,0,0,0,0,0,0,0,0,0,
2,2,1,2,0,0,0,0,0,0,0,0,0,0,0,0
</chunk>
   <chunk x="-16" y="0" width="16" height="16">
0,0,0,0,0,0,1,1,2,2,1,1,4,4,1,1,
0,0,0,0,0,0,2,2,2,1,2,1,1,2,2,2,
0,0,0,0,0,0,2,2,1,2,2,2,1,2,2,2,
0,0,0,0,0,0,2,2,2,2,1,2,2,1,2,2,
0,0,0,0,0,0,2,1,2,2,1,1,1,1,1,10,
0,0,0,0,0,0,2,2,2,2,1,1,1,1,4,4,
0,0,0,0,0,0,1,2,2,1,2,1,2,1,4,10,
0,0,0,0,0,0,1,1,2,1,1,1,2,2,10,2,
0,0,0,0,0,0,1,2,1,2,1,1,2,4,3,2,
0,0,0,0,0,0,1,1,2,1,1,1,37,37,2,2,
0,0,0,0,0,0,2,2,1,4,3,3,37,37,4,4,
0,0,0,0,0,0,2,1,4,4,1,37,37,37,2,4,
0,0,0,0,0,0,2,2,4,2,3,4,4,4,2,2,
0,0,0,0,0,0,2,2,3,3,1,10,10,3,2,1,
0,0,0,0,0,0,1,1,2,3,2,1,4,10,2,3,
0,0,0,0,0,0,1,2,1,3,4,3,1,2,3,10
</chunk>
   <chunk x="0" y="0" width="16" height="16">
1,1,1,2,1,3,3,4,3,2,1,4,4,10,1,2,
1,2,2,10,4,4,4,4,2,1,2,4,10,10,4,1,
2,2,10,10,4,10,10,1,1,1,2,1,2,10,3,10,
2,10,10,3,3,1,1,1,2,1,1,1,2,1,1,3,
3,4,3,10,1,1,2,1,2,1,2,1,2,2,1,1,
4,4,2,1,2,2,1,1,1,2,1,2,1,1,2,1,
37,4,1,1,2,2,2,1,2,1,2,1,1,1,1,1,
3,10,4,10,2,2,2,2,1,2,2,1,1,2,2,10,
1,2,4,10,10,2,2,1,2,2,2,2,1,2,10,3,
2,2,1,4,4,10,4,2,2,1,1,1,4,10,4,2,
2,2,2,2,1,4,4,3,4,1,2,4,10,4,2,1,
10,1,2,1,1,1,3,4,10,10,10,4,1,1,1,1,
4,10,1,2,1,2,1,2,2,4,4,3,1,2,1,1,
4,4,1,1,1,1,1,1,1,2,4,10,4,1,2,1,
4,2,1,2,2,1,2,1,2,2,1,1,10,3,4,1,
1,2,2,1,1,1,1,2,1,1,10,10,10,2,10,4
</chunk>
   <chunk x="16" y="0" width="16" height="16">
2,2,1,2,0,0,0,0,0,0,0,0,0,0,0,0,
1,2,1,1,0,0,0,0,0,0,0,0,0,0,0,0,
4,2,2,2,0,0,0,0,0,0,0,0,0,0,0,0,
4,10,2,2,0,0,0,0,0,0,0,0,0,0,0,0,
4,4,10,2,0,0,0,0,0,0,0,0,0,0,0,0,
2,10,4,4,0,0,0,0,0,0,0,0,0,0,0,0,
2,2,3,10,0,0,0,0,0,0,0,0,0,0,0,0,
1,2,1,2,0,0,0,0,0,0,0,0,0,0,0,0,
2,1,2,2,0,0,0,0,0,0,0,0,0,0,0,0,
1,1,2,2,0,0,0,0,0,0,0,0,0,0,0,0,
1,1,1,1,0,0,0,0,0,0,0,0,0,0,0,0,
1,2,1,2,0,0,0,0,0,0,0,0,0,0,0,0,
1,1,2,1,0,0,0,0,0,0,0,0,0,0,0,0,
1,1,2,1,0,0,0,0,0,0,0,0,0,0,0,0,
2,1,1,1,0,0,0,0,0,0,0,0,0,0,0,0,
2,2,1,1,0,0,0,0,0,0,0,0,0,0,0,0
</chunk>
   <chunk x="-16" y="16" width="16" height="16">
0,0,0,0,0,0,1,1,1,1,1,4,3,3,3,2,
0,0,0,0,0,0,1,2,1,1,2,1,1,2,2,2,
0,0,0,0,0,0,1,1,2,1,2,1,1,2,1,1,
0,0,0,0,0,0,2,1,2,1,2,1,2,2,2,2,
0,0,0,0,0,0,0,0,0,0,0,0,0,0,0,0,
0,0,0,0,0,0,0,0,0,0,0,0,0,0,0,0,
0,0,0,0,0,0,0,0,0,0,0,0,0,0,0,0,
0,0,0,0,0,0,0,0,0,0,0,0,0,0,0,0,
0,0,0,0,0,0,0,0,0,0,0,0,0,0,0,0,
0,0,0,0,0,0,0,0,0,0,0,0,0,0,0,0,
0,0,0,0,0,0,0,0,0,0,0,0,0,0,0,0,
0,0,0,0,0,0,0,0,0,0,0,0,0,0,0,0,
0,0,0,0,0,0,0,0,0,0,0,0,0,0,0,0,
0,0,0,0,0,0,0,0,0,0,0,0,0,0,0,0,
0,0,0,0,0,0,0,0,0,0,0,0,0,0,0,0,
0,0,0,0,0,0,0,0,0,0,0,0,0,0,0,0
</chunk>
   <chunk x="0" y="16" width="16" height="16">
1,2,1,2,1,1,1,1,2,1,1,10,10,10,3,3,
1,1,1,2,1,2,1,2,1,2,1,10,10,10,10,4,
2,1,2,1,2,1,2,2,1,2,2,10,10,1,4,4,
2,2,1,2,2,2,1,2,1,1,2,1,1,10,3,10,
0,0,0,0,0,0,0,0,0,0,0,0,0,0,0,0,
0,0,0,0,0,0,0,0,0,0,0,0,0,0,0,0,
0,0,0,0,0,0,0,0,0,0,0,0,0,0,0,0,
0,0,0,0,0,0,0,0,0,0,0,0,0,0,0,0,
0,0,0,0,0,0,0,0,0,0,0,0,0,0,0,0,
0,0,0,0,0,0,0,0,0,0,0,0,0,0,0,0,
0,0,0,0,0,0,0,0,0,0,0,0,0,0,0,0,
0,0,0,0,0,0,0,0,0,0,0,0,0,0,0,0,
0,0,0,0,0,0,0,0,0,0,0,0,0,0,0,0,
0,0,0,0,0,0,0,0,0,0,0,0,0,0,0,0,
0,0,0,0,0,0,0,0,0,0,0,0,0,0,0,0,
0,0,0,0,0,0,0,0,0,0,0,0,0,0,0,0
</chunk>
   <chunk x="16" y="16" width="16" height="16">
2,1,1,1,0,0,0,0,0,0,0,0,0,0,0,0,
1,1,1,1,0,0,0,0,0,0,0,0,0,0,0,0,
2,1,1,2,0,0,0,0,0,0,0,0,0,0,0,0,
2,1,1,1,0,0,0,0,0,0,0,0,0,0,0,0,
0,0,0,0,0,0,0,0,0,0,0,0,0,0,0,0,
0,0,0,0,0,0,0,0,0,0,0,0,0,0,0,0,
0,0,0,0,0,0,0,0,0,0,0,0,0,0,0,0,
0,0,0,0,0,0,0,0,0,0,0,0,0,0,0,0,
0,0,0,0,0,0,0,0,0,0,0,0,0,0,0,0,
0,0,0,0,0,0,0,0,0,0,0,0,0,0,0,0,
0,0,0,0,0,0,0,0,0,0,0,0,0,0,0,0,
0,0,0,0,0,0,0,0,0,0,0,0,0,0,0,0,
0,0,0,0,0,0,0,0,0,0,0,0,0,0,0,0,
0,0,0,0,0,0,0,0,0,0,0,0,0,0,0,0,
0,0,0,0,0,0,0,0,0,0,0,0,0,0,0,0,
0,0,0,0,0,0,0,0,0,0,0,0,0,0,0,0
</chunk>
  </data>
 </layer>
 <layer id="2" name="groundDetails" width="48" height="48">
  <data encoding="csv">
   <chunk x="-16" y="-16" width="16" height="16">
0,0,0,0,0,0,0,0,0,0,0,0,0,0,0,0,
0,0,0,0,0,0,0,0,0,0,0,0,0,0,0,0,
0,0,0,0,0,0,0,0,0,0,0,0,0,0,0,0,
0,0,0,0,0,0,0,0,0,0,0,0,0,0,0,0,
0,0,0,0,0,0,0,0,0,0,0,0,0,0,0,0,
0,0,0,0,0,0,0,0,0,0,0,0,0,0,0,0,
0,0,0,0,0,0,1171,1171,1171,1171,1171,1171,1171,1171,1171,1171,
0,0,0,0,0,0,1171,1171,1171,1171,1171,1171,1171,1171,1171,1171,
0,0,0,0,0,0,1171,1171,1171,1171,1171,1171,1171,1171,1171,1171,
0,0,0,0,0,0,1171,1171,1171,1171,1171,1171,1171,1171,1171,1171,
0,0,0,0,0,0,1171,1171,1171,1171,1171,1171,1171,1171,1171,1171,
0,0,0,0,0,0,1171,1171,1171,1171,1171,1171,1171,1171,1171,0,
0,0,0,0,0,0,1171,0,0,0,0,0,0,0,0,0,
0,0,0,0,0,0,1171,1170,0,0,0,1292,0,0,1170,0,
0,0,0,0,0,0,1171,1170,0,0,1170,0,0,0,0,0,
0,0,0,0,0,0,1171,0,0,0,0,0,0,1250,1251,0
</chunk>
   <chunk x="0" y="-16" width="16" height="16">
0,0,0,0,0,0,0,0,0,0,0,0,0,0,0,0,
0,0,0,0,0,0,0,0,0,0,0,0,0,0,0,0,
0,0,0,0,0,0,0,0,0,0,0,0,0,0,0,0,
0,0,0,0,0,0,0,0,0,0,0,0,0,0,0,0,
0,0,0,0,0,0,0,0,0,0,0,0,0,0,0,0,
0,0,0,0,0,0,0,0,0,0,0,0,0,0,0,0,
1171,1171,1171,1171,1171,1171,1171,1171,1171,1171,1171,1171,1171,1171,1171,1171,
1171,1171,1171,1171,1171,1171,1171,1171,1171,0,0,0,0,0,0,0,
1171,1171,1171,1171,1171,1171,1171,0,0,1170,0,1253,1293,0,0,0,
1171,1171,1171,1171,1171,1171,0,1170,0,0,1268,1269,0,0,0,0,
0,0,0,0,0,0,0,0,0,0,0,0,0,0,0,0,
0,0,0,0,0,0,0,0,0,0,0,0,0,0,0,0,
0,0,0,0,0,0,0,0,0,0,0,0,0,0,0,0,
0,0,0,0,0,0,0,0,0,0,0,0,1171,1171,1171,1171,
0,0,1171,1171,1171,1171,0,0,0,0,0,0,1171,1171,1171,1171,
0,1171,1171,1171,1171,1171,0,0,0,0,0,0,0,0,1171,1171
</chunk>
   <chunk x="16" y="-16" width="16" height="16">
0,0,0,0,0,0,0,0,0,0,0,0,0,0,0,0,
0,0,0,0,0,0,0,0,0,0,0,0,0,0,0,0,
0,0,0,0,0,0,0,0,0,0,0,0,0,0,0,0,
0,0,0,0,0,0,0,0,0,0,0,0,0,0,0,0,
0,0,0,0,0,0,0,0,0,0,0,0,0,0,0,0,
0,0,0,0,0,0,0,0,0,0,0,0,0,0,0,0,
1171,1171,1171,1171,0,0,0,0,0,0,0,0,0,0,0,0,
1171,1171,1171,1171,0,0,0,0,0,0,0,0,0,0,0,0,
0,1171,1171,1171,0,0,0,0,0,0,0,0,0,0,0,0,
0,0,0,0,0,0,0,0,0,0,0,0,0,0,0,0,
0,0,0,0,0,0,0,0,0,0,0,0,0,0,0,0,
0,0,0,0,0,0,0,0,0,0,0,0,0,0,0,0,
0,0,0,1171,0,0,0,0,0,0,0,0,0,0,0,0,
1171,1171,1171,1171,0,0,0,0,0,0,0,0,0,0,0,0,
1171,1171,1171,1171,0,0,0,0,0,0,0,0,0,0,0,0,
1171,1171,1171,1171,0,0,0,0,0,0,0,0,0,0,0,0
</chunk>
   <chunk x="-16" y="0" width="16" height="16">
0,0,0,0,0,0,1171,1171,1171,1171,1171,1171,0,1266,1267,0,
0,0,0,0,0,0,1171,1171,1171,1171,1171,1171,1171,1171,1171,1171,
0,0,0,0,0,0,1171,1171,1171,1171,1171,1171,1171,1171,1171,1171,
0,0,0,0,0,0,1171,1171,1171,1171,1171,1171,1171,1171,1171,1171,
0,0,0,0,0,0,1171,1171,1171,1171,1171,1171,1171,1171,1171,1171,
0,0,0,0,0,0,1171,1171,1171,1171,1171,1171,1171,1171,1171,0,
0,0,0,0,0,0,1171,1171,1171,1171,1171,1171,1171,1171,1171,0,
0,0,0,0,0,0,1171,1171,1171,1171,1171,1171,1171,1171,1171,0,
0,0,0,0,0,0,1171,1171,1171,1171,1171,1171,1171,0,0,0,
0,0,0,0,0,0,1171,1171,1171,1171,0,0,0,0,0,0,
0,0,0,0,0,0,1171,0,0,0,0,0,0,0,0,0,
0,0,0,0,0,0,1171,0,0,0,0,0,0,0,0,0,
0,0,0,0,0,0,1171,0,0,0,0,0,0,0,0,0,
0,0,0,0,0,0,1171,0,0,0,0,0,0,0,0,0,
0,0,0,0,0,0,1171,0,0,0,0,0,0,0,0,0,
0,0,0,0,0,0,1171,1171,0,0,1270,1271,0,1270,1271,0
</chunk>
   <chunk x="0" y="0" width="16" height="16">
1171,1171,1171,1171,1171,0,0,0,0,0,0,0,0,1170,0,1171,
1171,1171,1171,0,0,0,0,0,0,0,0,0,0,0,0,0,
1171,1171,0,1170,0,0,0,0,1171,1179,0,0,0,0,0,0,
1171,0,0,0,0,0,0,1180,1180,1180,1180,1180,0,0,0,0,
0,0,0,0,0,0,1180,1180,1180,1180,1180,1180,1180,1179,0,0,
0,0,0,0,0,1180,1180,1180,1180,1180,1180,1180,1180,1180,0,0,
0,0,0,0,0,1180,1180,1180,1180,1180,1180,1180,1180,1180,0,0,
0,0,0,0,0,0,0,1180,1180,1180,1180,1180,1180,0,0,0,
0,0,0,0,0,0,0,0,0,1180,1180,0,0,0,0,0,
0,0,0,0,0,0,0,0,0,0,0,0,0,0,0,0,
0,0,1171,1171,0,0,0,0,0,0,0,0,0,0,0,1171,
0,0,1171,1171,0,0,0,0,0,0,0,0,0,0,1171,1171,
0,0,1171,1171,1171,1171,0,0,0,0,0,0,0,1171,1171,1171,
0,0,0,1171,1171,1171,1171,1171,0,0,0,0,0,1171,1171,1171,
0,1171,1171,1171,1171,1171,1171,1171,0,0,0,0,0,0,0,1171,
1171,1171,1171,1171,1171,1171,1171,1171,1171,0,0,0,0,0,0,1171
</chunk>
   <chunk x="16" y="0" width="16" height="16">
1171,1171,1171,1171,0,0,0,0,0,0,0,0,0,0,0,0,
0,1171,1171,1171,0,0,0,0,0,0,0,0,0,0,0,0,
0,0,0,1171,0,0,0,0,0,0,0,0,0,0,0,0,
0,0,0,1171,0,0,0,0,0,0,0,0,0,0,0,0,
0,0,0,1171,0,0,0,0,0,0,0,0,0,0,0,0,
0,0,0,1171,0,0,0,0,0,0,0,0,0,0,0,0,
0,0,0,1171,0,0,0,0,0,0,0,0,0,0,0,0,
0,0,0,1171,0,0,0,0,0,0,0,0,0,0,0,0,
0,1171,1171,1171,0,0,0,0,0,0,0,0,0,0,0,0,
1171,1171,1171,1171,0,0,0,0,0,0,0,0,0,0,0,0,
1171,1171,1171,1171,0,0,0,0,0,0,0,0,0,0,0,0,
1171,1171,1171,1171,0,0,0,0,0,0,0,0,0,0,0,0,
1171,1171,1171,1171,0,0,0,0,0,0,0,0,0,0,0,0,
1171,1171,1171,1171,0,0,0,0,0,0,0,0,0,0,0,0,
1171,1171,1171,1171,0,0,0,0,0,0,0,0,0,0,0,0,
1171,1171,1171,1171,0,0,0,0,0,0,0,0,0,0,0,0
</chunk>
   <chunk x="-16" y="16" width="16" height="16">
0,0,0,0,0,0,1171,1171,1171,0,1286,1287,0,1286,1287,0,
0,0,0,0,0,0,1171,1171,1171,1171,1171,1171,1171,1171,1171,1171,
0,0,0,0,0,0,1171,1171,1171,1171,1171,1171,1171,1171,1171,1171,
0,0,0,0,0,0,1171,1171,1171,1171,1171,1171,1171,1171,1171,1171,
0,0,0,0,0,0,0,0,0,0,0,0,0,0,0,0,
0,0,0,0,0,0,0,0,0,0,0,0,0,0,0,0,
0,0,0,0,0,0,0,0,0,0,0,0,0,0,0,0,
0,0,0,0,0,0,0,0,0,0,0,0,0,0,0,0,
0,0,0,0,0,0,0,0,0,0,0,0,0,0,0,0,
0,0,0,0,0,0,0,0,0,0,0,0,0,0,0,0,
0,0,0,0,0,0,0,0,0,0,0,0,0,0,0,0,
0,0,0,0,0,0,0,0,0,0,0,0,0,0,0,0,
0,0,0,0,0,0,0,0,0,0,0,0,0,0,0,0,
0,0,0,0,0,0,0,0,0,0,0,0,0,0,0,0,
0,0,0,0,0,0,0,0,0,0,0,0,0,0,0,0,
0,0,0,0,0,0,0,0,0,0,0,0,0,0,0,0
</chunk>
   <chunk x="0" y="16" width="16" height="16">
1171,1171,1171,1171,1171,1171,1171,1171,1171,1171,0,0,0,0,0,1171,
1171,1171,1171,1171,1171,1171,1171,1171,1171,1171,0,0,0,0,0,1171,
1171,1171,1171,1171,1171,1171,1171,1171,1171,1171,0,0,0,0,0,1171,
1171,1171,1171,1171,1171,1171,1171,1171,1171,1171,1171,1171,1171,1171,1171,1171,
0,0,0,0,0,0,0,0,0,0,0,0,0,0,0,0,
0,0,0,0,0,0,0,0,0,0,0,0,0,0,0,0,
0,0,0,0,0,0,0,0,0,0,0,0,0,0,0,0,
0,0,0,0,0,0,0,0,0,0,0,0,0,0,0,0,
0,0,0,0,0,0,0,0,0,0,0,0,0,0,0,0,
0,0,0,0,0,0,0,0,0,0,0,0,0,0,0,0,
0,0,0,0,0,0,0,0,0,0,0,0,0,0,0,0,
0,0,0,0,0,0,0,0,0,0,0,0,0,0,0,0,
0,0,0,0,0,0,0,0,0,0,0,0,0,0,0,0,
0,0,0,0,0,0,0,0,0,0,0,0,0,0,0,0,
0,0,0,0,0,0,0,0,0,0,0,0,0,0,0,0,
0,0,0,0,0,0,0,0,0,0,0,0,0,0,0,0
</chunk>
   <chunk x="16" y="16" width="16" height="16">
1171,1171,1171,1171,0,0,0,0,0,0,0,0,0,0,0,0,
1171,1171,1171,1171,0,0,0,0,0,0,0,0,0,0,0,0,
1171,1171,1171,1171,0,0,0,0,0,0,0,0,0,0,0,0,
1171,1171,1171,1171,0,0,0,0,0,0,0,0,0,0,0,0,
0,0,0,0,0,0,0,0,0,0,0,0,0,0,0,0,
0,0,0,0,0,0,0,0,0,0,0,0,0,0,0,0,
0,0,0,0,0,0,0,0,0,0,0,0,0,0,0,0,
0,0,0,0,0,0,0,0,0,0,0,0,0,0,0,0,
0,0,0,0,0,0,0,0,0,0,0,0,0,0,0,0,
0,0,0,0,0,0,0,0,0,0,0,0,0,0,0,0,
0,0,0,0,0,0,0,0,0,0,0,0,0,0,0,0,
0,0,0,0,0,0,0,0,0,0,0,0,0,0,0,0,
0,0,0,0,0,0,0,0,0,0,0,0,0,0,0,0,
0,0,0,0,0,0,0,0,0,0,0,0,0,0,0,0,
0,0,0,0,0,0,0,0,0,0,0,0,0,0,0,0,
0,0,0,0,0,0,0,0,0,0,0,0,0,0,0,0
</chunk>
  </data>
 </layer>
 <layer id="8" name="walls" width="48" height="48">
  <data encoding="csv">
   <chunk x="-16" y="-16" width="16" height="16">
0,0,0,0,0,0,0,0,0,0,0,0,0,0,0,0,
0,0,0,0,0,0,0,0,0,0,0,0,0,0,0,0,
0,0,0,0,0,0,0,0,0,0,0,0,0,0,0,0,
0,0,0,0,0,0,0,0,0,0,0,0,0,0,0,0,
0,0,0,0,0,0,0,0,0,0,0,0,0,0,0,0,
0,0,0,0,0,0,0,0,0,0,0,0,0,0,0,0,
0,0,0,0,0,0,0,0,0,0,0,0,0,0,0,0,
0,0,0,0,0,0,0,0,0,0,0,0,0,0,0,0,
0,0,0,0,0,0,0,0,0,0,0,0,0,0,0,0,
0,0,0,0,0,0,0,0,0,0,0,0,0,0,681,682,
0,0,0,0,0,0,0,0,0,0,0,0,0,0,713,714,
0,0,0,0,0,0,835,836,663,664,984,742,743,744,745,746,
0,0,0,0,0,0,690,868,695,696,1016,774,775,776,777,778,
0,0,0,0,0,0,722,900,0,0,0,806,807,808,809,0,
0,0,0,0,0,0,762,0,0,0,0,1072,1039,840,681,682,
0,0,0,0,0,0,732,733,659,659,660,661,1071,872,713,714
</chunk>
   <chunk x="0" y="-16" width="16" height="16">
0,0,0,0,0,0,0,0,0,0,0,0,0,0,0,0,
0,0,0,0,0,0,0,0,0,0,0,0,0,0,0,0,
0,0,0,0,0,0,0,0,0,0,0,0,0,0,0,0,
0,0,0,0,0,0,0,0,0,0,0,0,0,0,0,0,
0,0,0,0,0,0,0,0,0,0,0,0,0,0,0,0,
0,0,0,0,0,0,0,0,681,682,0,0,0,0,0,0,
0,0,0,0,0,0,0,713,744,745,992,993,994,995,996,998,
0,0,0,0,0,0,744,745,776,777,1024,1025,1026,1027,1028,1030,
0,0,0,0,0,1125,776,777,778,779,1056,1057,1058,1059,0,1062,
658,659,660,661,659,660,1005,1006,1087,0,1088,1089,1090,1091,1125,1094,
715,691,692,693,691,692,858,0,1119,0,1120,1121,1122,1123,1125,1125,
747,0,0,0,0,0,0,0,1151,1152,1153,1154,1155,0,0,0,
779,0,0,804,805,0,0,0,0,0,0,658,745,821,822,823,
0,744,745,836,837,838,839,0,0,0,0,690,777,853,854,855,
683,776,777,868,869,870,871,0,0,0,0,890,664,665,666,0,
715,808,809,713,714,715,826,0,0,0,0,922,696,697,700,701
</chunk>
   <chunk x="16" y="-16" width="16" height="16">
0,0,0,0,0,0,0,0,0,0,0,0,0,0,0,0,
0,0,0,0,0,0,0,0,0,0,0,0,0,0,0,0,
0,0,0,0,0,0,0,0,0,0,0,0,0,0,0,0,
0,0,0,0,0,0,0,0,0,0,0,0,0,0,0,0,
0,0,0,0,0,0,0,0,0,0,0,0,0,0,0,0,
0,0,0,0,0,0,0,0,0,0,0,0,0,0,0,0,
999,0,0,0,0,0,0,0,0,0,0,0,0,0,0,0,
1031,0,966,967,0,0,0,0,0,0,0,0,0,0,0,0,
1063,1070,998,999,1073,0,0,0,0,0,0,0,0,0,0,0,
1095,1102,1030,1031,0,0,0,0,0,0,0,0,0,0,0,0,
0,0,1062,730,0,0,0,0,0,0,0,0,0,0,0,0,
0,0,1020,1021,0,0,0,0,0,0,0,0,0,0,0,0,
824,825,825,1053,0,0,0,0,0,0,0,0,0,0,0,0,
856,857,857,1085,0,0,0,0,0,0,0,0,0,0,0,0,
0,0,0,0,0,0,0,0,0,0,0,0,0,0,0,0,
0,0,0,0,0,0,0,0,0,0,0,0,0,0,0,0
</chunk>
   <chunk x="-16" y="0" width="16" height="16">
0,0,0,0,0,0,764,765,691,691,692,693,1103,904,745,746,
0,0,0,0,0,0,0,0,0,0,0,1134,935,936,777,778,
0,0,0,0,0,0,0,0,0,0,965,966,967,968,0,0,
0,0,0,0,0,0,0,0,0,0,0,0,0,0,0,1069,
0,0,0,0,0,0,0,0,0,0,0,0,0,0,1069,1101,
0,0,0,0,0,0,0,0,0,0,0,0,0,0,1101,1102,
0,0,0,0,0,0,0,0,0,0,0,0,0,1033,1101,0,
0,0,0,0,0,0,0,680,681,682,0,0,983,1065,1066,0,
0,0,0,0,0,0,0,712,713,714,1051,1052,1053,1097,1098,0,
0,0,0,0,0,0,0,989,745,746,1083,1084,1085,0,0,0,
0,0,0,0,0,0,0,1021,777,778,779,0,0,0,0,0,
0,0,0,0,0,0,0,1021,0,0,0,0,0,0,0,0,
0,0,0,0,0,0,0,794,0,0,0,0,0,0,0,0,
0,0,0,0,0,0,0,1031,0,0,0,0,0,0,0,0,
0,0,0,0,0,0,0,1063,1071,0,0,0,0,0,0,0,
0,0,0,0,0,0,0,1095,1103,1071,0,0,0,0,0,714
</chunk>
   <chunk x="0" y="0" width="16" height="16">
747,0,1069,745,746,747,858,0,0,0,0,1000,0,729,732,1070,
779,1069,1101,777,778,779,681,682,683,684,1071,1072,1073,0,764,1102,
1069,1101,1102,0,712,712,713,714,715,716,1103,1070,1071,1072,1073,1134,
1101,1102,0,0,682,683,659,746,747,748,1135,1102,1103,1070,1071,1072,
1102,0,0,0,1002,715,691,778,779,0,1134,1134,1135,1102,698,0,
0,0,0,0,874,747,907,907,811,0,0,1094,681,682,730,0,
0,0,0,0,1063,742,743,939,0,0,681,682,713,714,826,0,
0,0,0,0,1095,774,775,838,839,0,713,714,745,746,747,0,
0,0,0,0,0,806,807,870,871,838,745,746,777,778,779,0,
0,658,659,743,0,0,0,806,807,870,777,778,779,0,941,990,
0,690,691,775,743,0,0,0,0,806,0,0,0,0,973,1022,
0,818,893,807,775,743,0,0,0,0,0,0,658,745,1005,1054,
0,850,925,806,807,775,733,734,735,0,0,0,690,777,1037,1086,
0,714,715,0,806,807,765,766,767,0,0,0,1063,837,838,839,
714,715,747,0,0,796,797,798,1013,800,801,0,1095,869,870,925,
715,747,779,0,0,828,829,830,1045,884,885,0,0,0,902,957
</chunk>
   <chunk x="16" y="0" width="16" height="16">
1071,1072,1073,0,0,0,0,0,0,0,0,0,0,0,0,0,
1103,1070,1071,1072,1073,0,0,0,0,0,0,0,0,0,0,0,
1135,1102,1103,1071,0,0,0,0,0,0,0,0,0,0,0,0,
1134,1134,1135,1018,0,0,0,0,0,0,0,0,0,0,0,0,
0,1062,0,722,0,0,0,0,0,0,0,0,0,0,0,0,
0,1094,0,754,0,0,0,0,0,0,0,0,0,0,0,0,
0,1019,1020,1021,0,0,0,0,0,0,0,0,0,0,0,0,
989,990,1052,1053,0,0,0,0,0,0,0,0,0,0,0,0,
1021,1022,1084,1085,0,0,0,0,0,0,0,0,0,0,0,0,
1053,1054,0,0,0,0,0,0,0,0,0,0,0,0,0,0,
1085,1086,0,0,0,0,0,0,0,0,0,0,0,0,0,0,
0,0,0,0,0,0,0,0,0,0,0,0,0,0,0,0,
0,0,0,0,0,0,0,0,0,0,0,0,0,0,0,0,
987,0,0,0,0,0,0,0,0,0,0,0,0,0,0,0,
1019,0,0,0,0,0,0,0,0,0,0,0,0,0,0,0,
0,0,0,0,0,0,0,0,0,0,0,0,0,0,0,0
</chunk>
   <chunk x="-16" y="16" width="16" height="16">
0,0,0,0,0,0,0,1134,1135,1103,819,820,821,822,823,746,
0,0,0,0,0,0,0,0,1134,1135,851,852,853,854,855,778,
0,0,0,0,0,0,0,0,0,0,0,0,0,0,0,0,
0,0,0,0,0,0,0,0,0,0,0,0,0,0,0,0,
0,0,0,0,0,0,0,0,0,0,0,0,0,0,0,0,
0,0,0,0,0,0,0,0,0,0,0,0,0,0,0,0,
0,0,0,0,0,0,0,0,0,0,0,0,0,0,0,0,
0,0,0,0,0,0,0,0,0,0,0,0,0,0,0,0,
0,0,0,0,0,0,0,0,0,0,0,0,0,0,0,0,
0,0,0,0,0,0,0,0,0,0,0,0,0,0,0,0,
0,0,0,0,0,0,0,0,0,0,0,0,0,0,0,0,
0,0,0,0,0,0,0,0,0,0,0,0,0,0,0,0,
0,0,0,0,0,0,0,0,0,0,0,0,0,0,0,0,
0,0,0,0,0,0,0,0,0,0,0,0,0,0,0,0,
0,0,0,0,0,0,0,0,0,0,0,0,0,0,0,0,
0,0,0,0,0,0,0,0,0,0,0,0,0,0,0,0
</chunk>
   <chunk x="0" y="16" width="16" height="16">
747,779,0,0,0,860,861,862,1077,916,917,0,0,0,0,925,
779,0,0,0,0,0,0,0,0,0,949,0,0,0,0,925,
0,0,0,0,0,0,0,0,0,0,1050,1051,819,820,1052,1053,
0,0,0,0,0,0,0,0,0,0,1082,1083,851,852,1084,1085,
0,0,0,0,0,0,0,0,0,0,0,0,0,0,0,0,
0,0,0,0,0,0,0,0,0,0,0,0,0,0,0,0,
0,0,0,0,0,0,0,0,0,0,0,0,0,0,0,0,
0,0,0,0,0,0,0,0,0,0,0,0,0,0,0,0,
0,0,0,0,0,0,0,0,0,0,0,0,0,0,0,0,
0,0,0,0,0,0,0,0,0,0,0,0,0,0,0,0,
0,0,0,0,0,0,0,0,0,0,0,0,0,0,0,0,
0,0,0,0,0,0,0,0,0,0,0,0,0,0,0,0,
0,0,0,0,0,0,0,0,0,0,0,0,0,0,0,0,
0,0,0,0,0,0,0,0,0,0,0,0,0,0,0,0,
0,0,0,0,0,0,0,0,0,0,0,0,0,0,0,0,
0,0,0,0,0,0,0,0,0,0,0,0,0,0,0,0
</chunk>
   <chunk x="16" y="16" width="16" height="16">
0,0,0,0,0,0,0,0,0,0,0,0,0,0,0,0,
956,0,0,0,0,0,0,0,0,0,0,0,0,0,0,0,
0,0,0,0,0,0,0,0,0,0,0,0,0,0,0,0,
0,0,0,0,0,0,0,0,0,0,0,0,0,0,0,0,
0,0,0,0,0,0,0,0,0,0,0,0,0,0,0,0,
0,0,0,0,0,0,0,0,0,0,0,0,0,0,0,0,
0,0,0,0,0,0,0,0,0,0,0,0,0,0,0,0,
0,0,0,0,0,0,0,0,0,0,0,0,0,0,0,0,
0,0,0,0,0,0,0,0,0,0,0,0,0,0,0,0,
0,0,0,0,0,0,0,0,0,0,0,0,0,0,0,0,
0,0,0,0,0,0,0,0,0,0,0,0,0,0,0,0,
0,0,0,0,0,0,0,0,0,0,0,0,0,0,0,0,
0,0,0,0,0,0,0,0,0,0,0,0,0,0,0,0,
0,0,0,0,0,0,0,0,0,0,0,0,0,0,0,0,
0,0,0,0,0,0,0,0,0,0,0,0,0,0,0,0,
0,0,0,0,0,0,0,0,0,0,0,0,0,0,0,0
</chunk>
  </data>
 </layer>
 <layer id="11" name="objects" width="48" height="48">
  <data encoding="csv">
   <chunk x="-16" y="-16" width="16" height="16">
0,0,0,0,0,0,0,0,0,0,0,0,0,0,0,0,
0,0,0,0,0,0,0,0,0,0,0,0,0,0,0,0,
0,0,0,0,0,0,0,0,0,0,0,0,0,0,0,0,
0,0,0,0,0,0,0,0,0,0,0,0,0,0,0,0,
0,0,0,0,0,0,0,0,0,0,0,0,0,0,0,0,
0,0,0,0,0,0,0,0,0,0,0,0,0,0,0,0,
0,0,0,0,0,0,0,0,0,0,0,0,0,0,0,0,
0,0,0,0,0,0,0,0,0,0,0,0,0,0,0,0,
0,0,0,0,0,0,0,0,0,0,0,0,0,0,0,0,
0,0,0,0,0,0,0,0,0,0,0,0,0,0,0,0,
0,0,0,0,0,0,0,0,0,0,0,0,0,0,0,0,
0,0,0,0,0,0,0,1272,0,0,0,1272,0,0,0,0,
0,0,0,0,0,0,0,1301,1252,0,1308,0,0,0,0,0,
0,0,0,0,0,0,0,1282,1283,1284,0,0,1265,1272,0,0,
0,0,0,0,0,0,0,1298,1299,1300,0,0,0,0,0,0,
0,0,0,0,0,0,0,0,0,0,0,0,0,0,0,0
</chunk>
   <chunk x="0" y="-16" width="16" height="16">
0,0,0,0,0,0,0,0,0,0,0,0,0,0,0,0,
0,0,0,0,0,0,0,0,0,0,0,0,0,0,0,0,
0,0,0,0,0,0,0,0,0,0,0,0,0,0,0,0,
0,0,0,0,0,0,0,0,0,0,0,0,0,0,0,0,
0,0,0,0,0,0,0,0,0,0,0,0,0,0,0,0,
0,0,0,0,0,0,0,0,0,0,0,0,0,0,0,0,
0,0,0,0,0,0,0,0,0,1249,1249,0,0,0,0,1249,
0,0,0,0,0,0,0,0,0,1265,1265,1250,1251,0,1311,1265,
0,0,0,0,0,0,0,1240,1241,0,0,1266,1267,0,1280,1281,
0,0,1249,0,0,1249,0,1256,1257,0,0,0,0,0,1296,1297,
0,1293,1265,1273,1272,1265,1288,0,0,0,1288,0,1272,1252,0,0,
1288,0,0,0,0,0,0,0,0,0,0,0,0,0,0,0,
0,0,0,0,0,0,0,0,0,0,0,0,0,0,0,0,
0,0,0,0,0,0,0,1279,0,0,1279,0,0,0,0,0,
0,0,0,0,0,0,0,1295,0,0,1295,0,0,0,0,0,
0,0,0,0,0,0,0,0,0,0,0,0,0,0,0,0
</chunk>
   <chunk x="16" y="-16" width="16" height="16">
0,0,0,0,0,0,0,0,0,0,0,0,0,0,0,0,
0,0,0,0,0,0,0,0,0,0,0,0,0,0,0,0,
0,0,0,0,0,0,0,0,0,0,0,0,0,0,0,0,
0,0,0,0,0,0,0,0,0,0,0,0,0,0,0,0,
0,0,0,0,0,0,0,0,0,0,0,0,0,0,0,0,
0,0,0,0,0,0,0,0,0,0,0,0,0,0,0,0,
0,0,0,0,0,0,0,0,0,0,0,0,0,0,0,0,
0,0,0,0,0,0,0,0,0,0,0,0,0,0,0,0,
1272,0,1249,0,0,0,0,0,0,0,0,0,0,0,0,0,
1252,1292,1265,0,0,0,0,0,0,0,0,0,0,0,0,0,
1268,0,0,0,0,0,0,0,0,0,0,0,0,0,0,0,
0,0,0,0,0,0,0,0,0,0,0,0,0,0,0,0,
0,0,0,0,0,0,0,0,0,0,0,0,0,0,0,0,
0,0,0,0,0,0,0,0,0,0,0,0,0,0,0,0,
0,0,0,0,0,0,0,0,0,0,0,0,0,0,0,0,
0,0,0,0,0,0,0,0,0,0,0,0,0,0,0,0
</chunk>
   <chunk x="-16" y="0" width="16" height="16">
0,0,0,0,0,0,0,0,0,0,0,0,0,0,0,0,
0,0,0,0,0,0,0,0,0,0,0,0,0,0,0,0,
0,0,0,0,0,0,0,0,0,0,0,0,0,0,0,0,
0,0,0,0,0,0,0,0,0,0,0,0,0,0,0,0,
0,0,0,0,0,0,0,0,0,0,0,0,0,0,0,0,
0,0,0,0,0,0,0,0,0,0,0,0,0,0,0,1273,
0,0,0,0,0,0,0,0,0,0,0,0,0,0,0,1495,
0,0,0,0,0,0,0,0,0,0,0,0,0,0,0,0,
0,0,0,0,0,0,0,0,0,0,0,0,0,1314,1315,0,
0,0,0,0,0,0,0,0,0,0,1311,1288,0,1330,1331,0,
0,0,0,0,0,0,0,0,1308,0,0,0,0,0,0,0,
0,0,0,0,0,0,0,0,0,0,0,0,0,0,0,0,
0,0,0,0,0,0,0,0,0,0,0,1338,1339,1340,0,0,
0,0,0,0,0,0,0,0,1238,0,0,0,0,0,0,0,
0,0,0,0,0,0,0,0,0,0,0,0,0,0,0,0,
0,0,0,0,0,0,0,0,0,0,0,0,0,0,0,0
</chunk>
   <chunk x="0" y="0" width="16" height="16">
0,0,0,0,0,0,0,0,0,0,0,0,0,1495,0,0,
0,0,0,0,0,0,0,0,0,0,0,0,0,0,0,0,
0,0,1273,0,0,0,0,0,0,0,0,0,0,0,0,0,
0,0,0,0,0,0,0,0,0,0,0,0,0,0,0,0,
0,0,0,0,0,0,0,0,0,0,0,0,0,0,0,0,
0,0,0,0,0,0,0,0,0,0,0,0,0,0,0,0,
0,0,0,0,0,0,0,0,0,0,0,0,0,0,0,0,
0,0,0,0,0,0,0,0,0,0,0,0,0,0,1288,0,
0,0,0,0,0,0,0,1288,0,0,0,0,0,0,0,0,
0,0,0,0,0,0,0,0,0,0,1288,0,0,0,0,0,
0,0,0,0,0,0,0,0,0,0,0,0,0,0,0,0,
0,0,0,0,0,0,0,0,0,0,0,0,0,0,0,0,
0,1254,0,0,0,0,0,0,0,0,0,0,0,0,0,0,
0,0,0,0,0,0,0,0,0,0,0,0,0,1288,0,0,
0,0,0,0,0,0,0,0,0,0,0,0,1308,1351,1352,0,
0,0,0,0,0,0,0,0,0,0,0,0,0,1367,1368,0
</chunk>
   <chunk x="16" y="0" width="16" height="16">
0,0,0,0,0,0,0,0,0,0,0,0,0,0,0,0,
0,0,0,0,0,0,0,0,0,0,0,0,0,0,0,0,
0,0,0,0,0,0,0,0,0,0,0,0,0,0,0,0,
0,0,0,0,0,0,0,0,0,0,0,0,0,0,0,0,
0,0,0,0,0,0,0,0,0,0,0,0,0,0,0,0,
0,0,0,0,0,0,0,0,0,0,0,0,0,0,0,0,
0,0,1495,0,0,0,0,0,0,0,0,0,0,0,0,0,
0,0,0,0,0,0,0,0,0,0,0,0,0,0,0,0,
0,0,0,0,0,0,0,0,0,0,0,0,0,0,0,0,
0,0,0,0,0,0,0,0,0,0,0,0,0,0,0,0,
0,0,0,0,0,0,0,0,0,0,0,0,0,0,0,0,
0,0,0,0,0,0,0,0,0,0,0,0,0,0,0,0,
0,0,0,0,0,0,0,0,0,0,0,0,0,0,0,0,
0,0,0,0,0,0,0,0,0,0,0,0,0,0,0,0,
0,0,0,0,0,0,0,0,0,0,0,0,0,0,0,0,
0,0,0,0,0,0,0,0,0,0,0,0,0,0,0,0
</chunk>
  </data>
 </layer>
 <layer id="4" name="top" width="48" height="48">
  <data encoding="csv">
   <chunk x="-16" y="-16" width="16" height="16">
0,0,0,0,0,0,0,0,0,0,0,0,0,0,0,0,
0,0,0,0,0,0,0,0,0,0,0,0,0,0,0,0,
0,0,0,0,0,0,0,0,0,0,0,0,0,0,0,0,
0,0,0,0,0,0,0,0,0,0,0,0,0,0,0,0,
0,0,0,0,0,0,0,0,0,0,0,0,0,0,0,0,
0,0,0,0,0,0,0,0,0,0,0,0,0,0,0,0,
0,0,0,0,0,0,0,0,0,0,0,0,0,0,0,0,
0,0,0,0,0,0,0,0,0,0,0,0,0,0,0,0,
0,0,0,0,0,0,0,0,0,0,0,0,0,0,0,0,
0,0,0,0,0,0,0,0,0,0,0,0,0,0,0,0,
0,0,0,0,0,0,0,0,0,0,0,0,0,0,0,0,
0,0,0,0,0,0,0,0,0,0,0,0,0,0,0,0,
0,0,0,0,0,0,0,0,0,0,0,0,1249,0,0,0,
0,0,0,0,0,0,0,0,0,0,0,0,0,0,0,0,
0,0,0,0,0,0,0,0,0,0,0,0,0,0,0,0,
0,0,0,0,0,0,0,0,0,0,0,0,0,0,0,0
</chunk>
   <chunk x="0" y="-16" width="16" height="16">
0,0,0,0,0,0,0,0,0,0,0,0,0,0,0,0,
0,0,0,0,0,0,0,0,0,0,0,0,0,0,0,0,
0,0,0,0,0,0,0,0,0,0,0,0,0,0,0,0,
0,0,0,0,0,0,0,0,0,0,0,0,0,0,0,0,
0,0,0,0,0,0,0,0,0,0,0,0,0,0,0,0,
0,0,0,0,0,0,0,0,0,0,0,0,0,0,0,0,
0,0,0,0,0,0,0,0,0,0,0,0,0,0,0,0,
0,0,0,0,0,0,0,0,0,0,0,0,0,0,0,0,
0,0,0,0,0,0,0,0,0,0,0,1252,1252,0,0,0,
0,0,0,0,0,0,0,0,0,0,0,0,0,0,0,0,
0,0,0,0,0,0,0,0,0,0,0,0,0,0,0,0,
0,0,0,0,0,0,0,0,0,0,0,0,0,0,0,0,
0,0,0,0,0,0,0,0,0,0,0,0,0,0,0,0,
0,0,0,0,0,0,0,0,0,0,0,0,0,0,0,0,
0,0,0,0,0,0,0,0,0,0,0,0,0,0,0,0,
0,0,0,0,0,0,0,0,0,0,0,0,0,0,0,0
</chunk>
   <chunk x="-16" y="0" width="16" height="16">
0,0,0,0,0,0,0,0,0,0,0,0,0,0,0,0,
0,0,0,0,0,0,0,0,0,0,0,0,0,0,0,0,
0,0,0,0,0,0,0,0,0,0,0,0,0,0,0,0,
0,0,0,0,0,0,0,0,0,0,0,0,0,0,0,0,
0,0,0,0,0,0,0,0,0,0,0,0,0,0,0,0,
0,0,0,0,0,0,0,0,0,0,0,0,0,0,0,0,
0,0,0,0,0,0,0,0,0,0,0,0,0,0,0,0,
0,0,0,0,0,0,0,0,0,0,0,0,0,0,0,0,
0,0,0,0,0,0,0,0,0,0,0,0,0,0,0,0,
0,0,0,0,0,0,0,0,0,0,0,0,0,0,0,0,
0,0,0,0,0,0,0,0,0,0,0,0,0,0,0,0,
0,0,0,0,0,0,0,0,0,0,0,1322,1323,1324,0,0,
0,0,0,0,0,0,0,0,0,0,0,0,0,0,0,0,
0,0,0,0,0,0,0,0,0,0,0,0,0,0,0,0,
0,0,0,0,0,0,0,0,0,0,0,0,0,0,0,0,
0,0,0,0,0,0,0,0,0,0,0,0,0,0,0,0
</chunk>
   <chunk x="0" y="0" width="16" height="16">
0,0,0,0,0,0,0,0,0,0,0,0,0,0,0,0,
0,0,0,0,0,0,0,0,0,0,0,0,0,0,0,0,
0,0,0,0,0,0,0,0,0,0,0,0,0,0,0,0,
0,0,0,0,0,0,0,0,0,0,0,0,0,0,0,0,
0,0,0,0,0,0,0,0,0,0,0,0,0,0,0,0,
0,0,0,0,0,0,0,0,0,0,0,0,0,0,0,0,
0,0,0,0,0,0,0,0,0,0,0,0,0,0,0,0,
0,0,0,0,0,0,0,0,0,0,0,0,0,0,0,0,
0,0,0,0,0,0,0,0,0,0,0,0,0,0,0,0,
0,0,0,0,0,0,0,0,0,0,0,0,0,0,0,0,
0,0,0,0,0,0,0,0,0,0,0,0,0,0,0,0,
0,0,0,0,0,0,0,0,0,0,0,0,0,0,0,0,
0,0,0,0,0,0,0,0,0,0,0,0,0,0,0,0,
0,0,0,0,0,0,0,0,0,0,0,0,0,0,0,0,
0,0,0,0,0,0,0,0,0,0,0,0,0,0,1636,0,
0,0,0,0,0,0,0,0,0,0,0,0,0,0,1668,0
</chunk>
  </data>
 </layer>
 <layer id="5" name="collision" width="48" height="48">
  <data encoding="csv">
   <chunk x="-16" y="-16" width="16" height="16">
0,0,0,0,0,0,0,0,0,0,0,0,0,0,0,0,
0,0,0,0,0,0,0,0,0,0,0,0,0,0,0,0,
0,0,0,0,0,0,0,0,0,0,0,0,0,0,0,0,
0,0,0,0,0,0,0,0,0,0,0,0,0,0,0,0,
0,0,0,0,0,0,0,0,0,0,0,0,0,0,0,0,
0,0,0,0,0,0,0,0,0,0,0,0,0,0,0,0,
0,0,0,0,0,0,657,657,657,657,657,657,657,657,657,657,
0,0,0,0,0,0,657,657,657,657,657,657,657,657,657,657,
0,0,0,0,0,0,657,657,657,657,657,657,657,657,657,657,
0,0,0,0,0,0,657,657,657,657,657,657,657,657,657,657,
0,0,0,0,0,0,657,657,657,657,657,657,657,657,657,657,
0,0,0,0,0,0,657,657,657,657,657,657,657,657,657,657,
0,0,0,0,0,0,657,657,657,657,657,657,657,657,657,657,
0,0,0,0,0,0,657,657,657,657,0,0,657,657,0,0,
0,0,0,0,0,0,657,657,657,657,0,0,0,0,0,0,
0,0,0,0,0,0,657,657,657,657,657,657,657,657,657,657
</chunk>
   <chunk x="0" y="-16" width="16" height="16">
0,0,0,0,0,0,0,0,0,0,0,0,0,0,0,0,
0,0,0,0,0,0,0,0,0,0,0,0,0,0,0,0,
0,0,0,0,0,0,0,0,0,0,0,0,0,0,0,0,
0,0,0,0,0,0,0,0,0,0,0,0,0,0,0,0,
0,0,0,0,0,0,0,0,0,0,0,0,0,0,0,0,
0,0,0,0,0,0,0,0,0,0,0,0,0,0,0,0,
657,657,657,657,657,657,657,657,657,657,657,657,657,657,657,657,
657,657,657,657,657,657,657,657,657,657,657,657,657,657,657,657,
657,657,657,657,657,657,657,657,657,0,0,657,657,657,657,0,
657,657,657,657,657,657,657,657,657,0,657,657,657,657,0,0,
657,657,657,657,657,657,657,0,0,0,657,657,657,657,0,0,
657,0,0,0,0,0,0,0,0,0,0,0,0,0,0,0,
0,0,0,0,0,0,0,0,0,0,0,657,657,657,657,657,
0,657,657,657,657,657,657,657,0,0,657,657,657,657,657,657,
657,657,657,657,657,657,657,657,0,0,657,657,657,657,657,657,
657,657,657,657,657,657,657,0,0,0,0,657,657,657,657,657
</chunk>
   <chunk x="16" y="-16" width="16" height="16">
0,0,0,0,0,0,0,0,0,0,0,0,0,0,0,0,
0,0,0,0,0,0,0,0,0,0,0,0,0,0,0,0,
0,0,0,0,0,0,0,0,0,0,0,0,0,0,0,0,
0,0,0,0,0,0,0,0,0,0,0,0,0,0,0,0,
0,0,0,0,0,0,0,0,0,0,0,0,0,0,0,0,
0,0,0,0,0,0,0,0,0,0,0,0,0,0,0,0,
657,657,657,657,0,0,0,0,0,0,0,0,0,0,0,0,
657,657,657,657,0,0,0,0,0,0,0,0,0,0,0,0,
657,657,657,657,0,0,0,0,0,0,0,0,0,0,0,0,
657,657,657,657,0,0,0,0,0,0,0,0,0,0,0,0,
0,0,0,657,0,0,0,0,0,0,0,0,0,0,0,0,
0,0,0,657,0,0,0,0,0,0,0,0,0,0,0,0,
657,657,657,657,0,0,0,0,0,0,0,0,0,0,0,0,
657,657,657,657,0,0,0,0,0,0,0,0,0,0,0,0,
657,657,657,657,0,0,0,0,0,0,0,0,0,0,0,0,
657,657,657,657,0,0,0,0,0,0,0,0,0,0,0,0
</chunk>
   <chunk x="-16" y="0" width="16" height="16">
0,0,0,0,0,0,657,657,657,657,657,657,657,657,657,657,
0,0,0,0,0,0,657,657,657,657,657,657,657,657,657,657,
0,0,0,0,0,0,657,657,657,657,657,657,657,657,657,657,
0,0,0,0,0,0,657,657,657,657,657,657,657,657,657,657,
0,0,0,0,0,0,657,657,657,657,657,657,657,657,657,657,
0,0,0,0,0,0,657,657,657,657,657,657,657,657,657,657,
0,0,0,0,0,0,657,657,657,657,657,657,657,657,657,657,
0,0,0,0,0,0,657,657,657,657,657,657,657,657,657,0,
0,0,0,0,0,0,657,657,657,657,657,657,657,657,657,0,
0,0,0,0,0,0,657,657,657,657,657,657,657,657,657,0,
0,0,0,0,0,0,657,657,657,657,0,0,0,0,0,0,
0,0,0,0,0,0,657,657,0,0,0,0,0,0,0,0,
0,0,0,0,0,0,657,657,0,0,0,657,657,657,0,0,
0,0,0,0,0,0,657,657,657,0,0,0,0,0,0,0,
0,0,0,0,0,0,657,657,657,0,0,0,0,0,0,0,
0,0,0,0,0,0,657,657,657,657,0,0,0,0,0,657
</chunk>
   <chunk x="0" y="0" width="16" height="16">
657,657,657,657,657,657,657,0,0,0,0,0,0,657,657,657,
657,657,657,657,657,0,0,0,657,657,657,0,0,0,657,657,
657,657,657,0,0,0,0,657,657,657,657,657,657,0,0,0,
657,657,0,0,0,657,657,657,657,657,657,657,657,657,657,0,
657,0,0,0,657,657,657,657,657,657,657,657,657,657,657,0,
0,0,0,0,657,657,657,657,657,657,657,657,657,657,657,0,
0,0,0,0,657,657,657,657,657,657,657,657,657,657,657,0,
0,0,0,0,657,657,657,657,657,657,657,657,657,657,657,0,
0,0,0,0,0,0,657,657,657,657,657,657,657,657,0,0,
0,657,657,657,0,0,0,0,657,657,657,657,0,0,657,657,
0,657,657,657,657,0,0,0,0,0,0,0,0,0,657,657,
0,657,657,657,657,657,0,0,0,0,0,0,657,657,657,657,
0,657,657,657,657,657,657,657,657,0,0,0,657,657,657,657,
0,657,657,657,657,657,657,657,657,0,0,0,657,657,657,657,
657,657,657,657,657,657,657,657,657,0,0,0,657,657,657,657,
657,657,657,657,657,657,657,657,657,657,657,0,0,657,657,657
</chunk>
   <chunk x="16" y="0" width="16" height="16">
657,657,657,657,0,0,0,0,0,0,0,0,0,0,0,0,
657,657,657,657,0,0,0,0,0,0,0,0,0,0,0,0,
657,657,657,657,0,0,0,0,0,0,0,0,0,0,0,0,
0,0,657,657,0,0,0,0,0,0,0,0,0,0,0,0,
0,0,0,657,0,0,0,0,0,0,0,0,0,0,0,0,
0,0,0,657,0,0,0,0,0,0,0,0,0,0,0,0,
0,0,657,657,0,0,0,0,0,0,0,0,0,0,0,0,
657,657,657,657,0,0,0,0,0,0,0,0,0,0,0,0,
657,657,657,657,0,0,0,0,0,0,0,0,0,0,0,0,
657,657,657,657,0,0,0,0,0,0,0,0,0,0,0,0,
657,657,657,657,0,0,0,0,0,0,0,0,0,0,0,0,
657,657,657,657,0,0,0,0,0,0,0,0,0,0,0,0,
657,657,657,657,0,0,0,0,0,0,0,0,0,0,0,0,
657,657,657,657,0,0,0,0,0,0,0,0,0,0,0,0,
657,657,657,657,0,0,0,0,0,0,0,0,0,0,0,0,
657,657,657,657,0,0,0,0,0,0,0,0,0,0,0,0
</chunk>
   <chunk x="-16" y="16" width="16" height="16">
0,0,0,0,0,0,657,657,657,657,657,657,657,657,657,657,
0,0,0,0,0,0,657,657,657,657,657,657,657,657,657,657,
0,0,0,0,0,0,657,657,657,657,657,657,657,657,657,657,
0,0,0,0,0,0,657,657,657,657,657,657,657,657,657,657,
0,0,0,0,0,0,0,0,0,0,0,0,0,0,0,0,
0,0,0,0,0,0,0,0,0,0,0,0,0,0,0,0,
0,0,0,0,0,0,0,0,0,0,0,0,0,0,0,0,
0,0,0,0,0,0,0,0,0,0,0,0,0,0,0,0,
0,0,0,0,0,0,0,0,0,0,0,0,0,0,0,0,
0,0,0,0,0,0,0,0,0,0,0,0,0,0,0,0,
0,0,0,0,0,0,0,0,0,0,0,0,0,0,0,0,
0,0,0,0,0,0,0,0,0,0,0,0,0,0,0,0,
0,0,0,0,0,0,0,0,0,0,0,0,0,0,0,0,
0,0,0,0,0,0,0,0,0,0,0,0,0,0,0,0,
0,0,0,0,0,0,0,0,0,0,0,0,0,0,0,0,
0,0,0,0,0,0,0,0,0,0,0,0,0,0,0,0
</chunk>
   <chunk x="0" y="16" width="16" height="16">
657,657,657,657,657,657,657,657,657,657,657,0,0,0,0,657,
657,657,657,657,657,657,657,657,657,657,657,0,0,0,0,657,
657,657,657,657,657,657,657,657,657,657,657,657,657,657,657,657,
657,657,657,657,657,657,657,657,657,657,657,657,657,657,657,657,
0,0,0,0,0,0,0,0,0,0,0,0,0,0,0,0,
0,0,0,0,0,0,0,0,0,0,0,0,0,0,0,0,
0,0,0,0,0,0,0,0,0,0,0,0,0,0,0,0,
0,0,0,0,0,0,0,0,0,0,0,0,0,0,0,0,
0,0,0,0,0,0,0,0,0,0,0,0,0,0,0,0,
0,0,0,0,0,0,0,0,0,0,0,0,0,0,0,0,
0,0,0,0,0,0,0,0,0,0,0,0,0,0,0,0,
0,0,0,0,0,0,0,0,0,0,0,0,0,0,0,0,
0,0,0,0,0,0,0,0,0,0,0,0,0,0,0,0,
0,0,0,0,0,0,0,0,0,0,0,0,0,0,0,0,
0,0,0,0,0,0,0,0,0,0,0,0,0,0,0,0,
0,0,0,0,0,0,0,0,0,0,0,0,0,0,0,0
</chunk>
   <chunk x="16" y="16" width="16" height="16">
657,657,657,657,0,0,0,0,0,0,0,0,0,0,0,0,
657,657,657,657,0,0,0,0,0,0,0,0,0,0,0,0,
657,657,657,657,0,0,0,0,0,0,0,0,0,0,0,0,
657,657,657,657,0,0,0,0,0,0,0,0,0,0,0,0,
0,0,0,0,0,0,0,0,0,0,0,0,0,0,0,0,
0,0,0,0,0,0,0,0,0,0,0,0,0,0,0,0,
0,0,0,0,0,0,0,0,0,0,0,0,0,0,0,0,
0,0,0,0,0,0,0,0,0,0,0,0,0,0,0,0,
0,0,0,0,0,0,0,0,0,0,0,0,0,0,0,0,
0,0,0,0,0,0,0,0,0,0,0,0,0,0,0,0,
0,0,0,0,0,0,0,0,0,0,0,0,0,0,0,0,
0,0,0,0,0,0,0,0,0,0,0,0,0,0,0,0,
0,0,0,0,0,0,0,0,0,0,0,0,0,0,0,0,
0,0,0,0,0,0,0,0,0,0,0,0,0,0,0,0,
0,0,0,0,0,0,0,0,0,0,0,0,0,0,0,0,
0,0,0,0,0,0,0,0,0,0,0,0,0,0,0,0
</chunk>
  </data>
 </layer>
 <objectgroup id="9" name="transitions">
  <object id="8" template="../../../../../../../../../../Users/Charles/Pictures/untitled.tx" gid="1700" x="896" y="1088" width="64" height="64">
   <properties>
    <property name="targetCol" type="int" value="14"/>
    <property name="targetRow" type="int" value="16"/>
   </properties>
  </object>
 </objectgroup>
 <objectgroup id="10" name="spawns">
  <object id="7" x="704" y="960" width="64" height="64">
   <properties>
    <property name="name" value="playerStart"/>
    <property name="type" value="playerSpawn"/>
   </properties>
  </object>
 </objectgroup>
</map>
